!!!!SEGMENT: pl-cz--iii-554--001-007_raszek-waclaw--missa-ex-c-credo.krn
!!!cenid: 17xx:1028
!!!COM: Raszek, Wacław
!!!COM-rismid: pe30020314
!!!CDT: <1848->1848
!!!CNT:
!!!OPR: Missa ex C
!!!OTL: Credo
!!!OMV: 007
!!!PDT: 1780
!!!AGN: Sacred; Mass
!!!SMS-siglum: PL-CZ
!!!SMS-shelfmark: III-554
!!!SMS-shelfwork: 001-007 M
!!!SMS-variant:
!!!SMS-altvar:
!!!NIFC-rismid: 300001043
!!!URL-scan: http://repozytorium.nifc.pl/skany/pl-cz-nut--iii-554
!!!ONB-nifc: UWAGA: części Mszy: Kyrie, Gloria, Laudamus, Qui tollis, Quoniam, Cum sancto spiritu, Credo, Et incarnatus, Et resurrexit, Sanctus, Benedictus, Agnus Dei, Dona nobis
!!!key: C
!!!OMD: Allegro
**kern	**kern	**kern	**dynam	**kern	**dynam	**kern	**dynam	**kern	**dynam	**kern	**text	**kern	**text	**kern	**text	**kern	**text	**kern	**kern	**kern	**kern
*part13	*part13	*part12	*part12	*part11	*part11	*part10	*part10	*part9	*part9	*part8	*part8	*part7	*part7	*part6	*part6	*part5	*part5	*part4	*part3	*part2	*part1
*staff14	*staff13	*staff12	*	*staff11	*	*staff10	*	*staff9	*	*staff8	*staff8	*staff7	*staff7	*staff6	*staff6	*staff5	*staff5	*staff4	*staff3	*staff2	*staff1
*Iempty	*Iempty	*Icello	*	*Iempty	*	*Ivioln	*	*Iempty	*	*Iempty	*	*Itenor	*	*Ialto	*	*Ivox	*	*Iempty	*Iempty	*Ioboe	*Ioboe
*I"Organo Concertato	*	*I"Violone.	*	*I"Viola di Alto. oblig.	*	*I"Violino 2do.	*	*I"Violino I.mo	*	*I"Baſso.	*	*I"Tenore.	*	*I"Alto.	*	*I"Canto.	*	*I"Clarino 2.do Ex C.	*I"Clarino I.mo Ex C.	*I"Oboe Secundo.	*I"Oboe Primo.
*I'Org.	*	*I'Vlne	*	*I'Vla.	*	*I'Vn II	*	*I'Vn I	*	*I'B.	*	*I'T.	*	*I'A.	*	*I'C.	*	*I'Cl. II ex C	*I'Cl. I ex C	*I'Ob. II	*I'Ob. I
*clefF4	*clefG2	*clefF4	*	*clefC3	*	*clefG2	*	*clefG2	*	*clefF4	*	*clefC4	*	*clefC3	*	*clefC1	*	*clefG2	*clefG2	*clefG2	*clefG2
*ICklav	*ICklav	*ICstr	*	*ICstr	*	*ICstr	*	*ICstr	*	*ICvox	*	*ICvox	*	*ICvox	*	*ICvox	*	*ICbras	*ICbras	*ICww	*ICww
*k[]	*k[]	*k[]	*	*k[]	*	*k[]	*	*k[]	*	*k[]	*	*k[]	*	*k[]	*	*k[]	*	*k[]	*k[]	*k[]	*k[]
*C:	*C:	*C:	*	*C:	*	*C:	*	*C:	*	*C:	*	*C:	*	*C:	*	*C:	*	*C:	*C:	*C:	*C:
*M4/4	*M4/4	*M4/4	*	*M4/4	*	*M4/4	*	*M4/4	*	*M4/4	*	*M4/4	*	*M4/4	*	*M4/4	*	*M4/4	*M4/4	*M4/4	*M4/4
*met(c)	*met(c)	*met(c)	*	*met(c)	*	*met(c)	*	*met(c)	*	*met(c)	*	*met(c)	*	*met(c)	*	*met(c)	*	*met(c)	*met(c)	*met(c)	*met(c)
=1	=1	=1	=1	=1	=1	=1	=1	=1	=1	=1	=1	=1	=1	=1	=1	=1	=1	=1	=1	=1	=1
*	*	*	*	*	*	*	*	*	*	*	*	*	*	*	*	*	*	*	*	*	*all\right:global
!	!	!LO:TX:rj:a:t=Allo.	!	!LO:TX:rj:a:t=Allo.	!	!LO:TX:rj:a:t=Allo.	!	!LO:TX:rj:a:t=Allo.	!	!LO:TX:a:t=Allo.	!	!LO:TX:a:t=Allo.	!	!LO:TX:a:t=Allo.	!	!LO:TX:a:t=Allo.	!	!	!LO:TX:rj:a:t=Allo.	!LO:TX:rj:a:t=Allo.	!LO:TX:a:t=Allo.
!	!	!	!	!	!	!	!	!	!	!	!	!LO:TX:t=P:problem=litera C przed kluczem, na początku pięciolinii	!	!	!	!LO:TX:t=P:problem=litera C przed kluczem, na początku pięciolinii	!	!	!	!	!
!	!	!	!	!	!	!	!	!	!	!LO:TX:t=P:problem=litera C przed kluczem, na początku pięciolinii	!	!	!	!	!	!	!	!	!	!	!
!	!LO:TX:a:t=Brak partii organo w źródle	!	!	!	!	!	!	!	!LO:DY:a:t=for&colon;	!	!	!LO:TX:rj:a:t=T(utti).	!	!LO:TX:t=P:problem=litera C przed kluczem, na początku pięciolinii	!	!LO:TX:a:t=T(utti).	!	!	!	!	!
1ryy	1ryy	4C/	.	4e\	.	4g/	.	8cc\L	f	4c\	Cre-	4c\	Cre-	4g\	Cre-	4cc\	Cre-	4e/	4cc\	4g/	4cc\
.	.	.	.	.	.	.	.	16dd\L	.	.	.	.	.	.	.	.	.	.	.	.	.
.	.	.	.	.	.	.	.	16ee\JJ	.	.	.	.	.	.	.	.	.	.	.	.	.
.	.	4BB/	.	4d\	.	4g/	.	4dd\	.	4B\	-do	4B\	-do	4g\	-do	4dd\	-do	4g/	4dd\	4g/	4dd\
.	.	8r	.	8r	.	8r	.	8r	.	8r	.	8r	.	8r	.	8r	.	8r	8r	8r	8r
!	!	!	!	!	!	!	!	!	!	!LO:TX:t=P:problem=pod nutami 3-5 skreślenia tekstu	!	!	!	!	!	!	!	!	!	!	!
.	.	8c\L	.	8cc\L	.	8g/L	.	8ee\	.	8c\	in	8c\	in	8g\	in	8ee\	in	8g/L	8ee\L	8g/L	8ee\L
.	.	.	.	.	.	.	.	8qgg/	.	.	.	.	.	.	.	.	.	.	.	.	.
.	.	8A\	.	8a\	.	8c/	.	8ff\L	.	8A\	u-	8c\	u-	8a\	u-	8ff\	u-	8cc/	8ff\	8a/	8ff\
.	.	8F\J	.	8f\J	.	8a/J	.	16ee\L	.	8F\	-num	8c\	-num	8a\	-num	8dd\	-num	8cc/J	8dd\J	8a/J	8dd\J
.	.	.	.	.	.	.	.	16dd\JJ	.	.	.	.	.	.	.	.	.	.	.	.	.
=2	=2	=2	=2	=2	=2	=2	=2	=2	=2	=2	=2	=2	=2	=2	=2	=2	=2	=2	=2	=2	=2
.	.	.	.	.	.	.	.	8qcc/	.	.	.	.	.	.	.	.	.	.	.	.	.
1ryy	1ryy	8G\L	.	8g\L	.	4d/	.	8b\L	.	8G\L	De-	8c\L	De-	4g\	De-	8cc\L	De-	4g/	4dd\	4g/	8cc\L
.	.	8F\	.	8f\	.	.	.	16a\L	.	8F\J	.	8d\J	.	.	.	8b\J	.	.	.	.	8b\J
.	.	.	.	.	.	.	.	16b\JJ	.	.	.	.	.	.	.	.	.	.	.	.	.
.	.	8E\	.	8e\	.	8g/L	.	4cc\	.	4E\	-um	4e\	-um	4g\	-um	4cc\	-um	4c/	4cc\	8g/L	4cc\
.	.	8D\J	.	8d\J	.	8f/J	.	.	.	.	.	.	.	.	.	.	.	.	.	8f/J	.
*	*	*tremolo	*	*2\right	*	*	*	*	*	*	*	*	*	*	*	*	*	*	*	*	*
*	*	*	*	*tremolo	*	*	*	*	*	*	*	*	*	*	*	*	*	*	*	*	*
.	.	8C/L	.	8e\L	.	8e/	.	16cc\LL	.	4c\	Pa-	4c\	Pa-	4g\	pa-	4ee\	pa-	8cc\L	8ee\L	8e/L	4ee\
.	.	.	.	.	.	.	.	16ccc\	.	.	.	.	.	.	.	.	.	.	.	.	.
.	.	8C/	.	8e\	.	8r	.	16bb\	.	.	.	.	.	.	.	.	.	16cc\L	16ee\L	8g/	.
.	.	.	.	.	.	.	.	16ccc\JJ	.	.	.	.	.	.	.	.	.	16cc\JJ	16ee\JJ	.	.
.	.	8C/	.	8e\	.	4r	.	16ddd\LL	.	8c\	-trem	8c\	-trem	8g\	-trem	8ee\	-trem	8cc\L	8ee\L	8g/	8ee\L
.	.	.	.	.	.	.	.	16ccc\	.	.	.	.	.	.	.	.	.	.	.	.	.
.	.	8C/J	.	8e\J	.	.	.	16bb\	.	8c\	om-	8c\	om-	8g\	om-	8ee\	om-	8cc\J	8ee\J	8g/J	8ee\J
.	.	.	.	.	.	.	.	16aa\JJ	.	.	.	.	.	.	.	.	.	.	.	.	.
=3	=3	=3	=3	=3	=3	=3	=3	=3	=3	=3	=3	=3	=3	=3	=3	=3	=3	=3	=3	=3	=3
*	*	*	*	*	*	*	*	*	*	*	*	*	*	*	*	*	*	*	*2\right	*	*2\right
1ryy	1ryy	8BB/L	.	8d\L	.	2r	.	8gg\L	.	4B\	-ni-	4d\	-ni-	4g\	-ni-	4dd\	-ni-	8g/L	2dd\	2g/	2dd\
.	.	8BB/	.	8d\	.	.	.	16aa\L	.	.	.	.	.	.	.	.	.	16g/L	.	.	.
.	.	.	.	.	.	.	.	16gg\JJ	.	.	.	.	.	.	.	.	.	16g/JJ	.	.	.
.	.	8BB/	.	8d\	.	.	.	16gg\LL	.	4B\	-po-	4B\	-po-	4g\	-po-	4dd\	-po-	8g/L	.	.	.
.	.	.	.	.	.	.	.	16ff\	.	.	.	.	.	.	.	.	.	.	.	.	.
.	.	8BB/J	.	8d\J	.	.	.	16ee\	.	.	.	.	.	.	.	.	.	8g/J	.	.	.
.	.	.	.	.	.	.	.	16dd\JJ	.	.	.	.	.	.	.	.	.	.	.	.	.
!	!	!	!	!	!	!LO:TX:t=P:problem=mixed beam	!	!	!	!	!	!	!	!	!	!	!	!	!	!	!
.	.	8C/L	.	8e\L	.	16c/LL	.	4ee\	.	4c\	-ten-	4c\	-ten-	4g\	-ten-	4ee\	-ten-	4cc\	4ee\	4g/	2ee\
.	.	.	.	.	.	16cc\	.	.	.	.	.	.	.	.	.	.	.	.	.	.	.
.	.	8C/	.	8e\	.	16b\	.	.	.	.	.	.	.	.	.	.	.	.	.	.	.
.	.	.	.	.	.	16cc\JJ	.	.	.	.	.	.	.	.	.	.	.	.	.	.	.
.	.	8C/	.	8e\	.	16dd\LL	.	4r	.	8C/	-tem	8c\	-tem	8g\	-tem	8ee\	-tem	4r	4r	4g/	.
.	.	.	.	.	.	16cc\	.	.	.	.	.	.	.	.	.	.	.	.	.	.	.
.	.	8C/J	.	8e\J	.	16b\	.	.	.	8C/	fac-	8c\	fac-	8g\	fac-	8ee\	fac-	.	.	.	.
.	.	.	.	.	.	16a\JJ	.	.	.	.	.	.	.	.	.	.	.	.	.	.	.
=4	=4	=4	=4	=4	=4	=4	=4	=4	=4	=4	=4	=4	=4	=4	=4	=4	=4	=4	=4	=4	=4
1ryy	1ryy	8BB/L	.	8d\L	.	8g/L	.	2r	.	4BB/	-to-	4d\	-to-	4g\	-to-	4dd\	-to-	4g/	4dd\	2g/	4dd\
.	.	8BB/	.	8d\	.	16a/L	.	.	.	.	.	.	.	.	.	.	.	.	.	.	.
.	.	.	.	.	.	16g/JJ	.	.	.	.	.	.	.	.	.	.	.	.	.	.	.
.	.	8BB/	.	8d\	.	16g/LL	.	.	.	4BB/	-rem	4B\	-rem	4g\	-rem	4dd\	-rem	4r	4r	.	8dd\L
.	.	.	.	.	.	16f/	.	.	.	.	.	.	.	.	.	.	.	.	.	.	.
.	.	8BB/J	.	8d\J	.	16e/	.	.	.	.	.	.	.	.	.	.	.	.	.	.	8dd\J
.	.	.	.	.	.	16d/JJ	.	.	.	.	.	.	.	.	.	.	.	.	.	.	.
.	.	8C/L	.	8e\L	.	8e/	.	16ee\LL	.	4C/	Cae-	4c\	cae-	4g\	cae-	4ee\	cae-	8cc\L	8ee\L	4g/	2ee\
.	.	.	.	.	.	.	.	16ccc\	.	.	.	.	.	.	.	.	.	.	.	.	.
.	.	8C/	.	8e\	.	8r	.	16bb\	.	.	.	.	.	.	.	.	.	16cc\L	16ee\L	.	.
.	.	.	.	.	.	.	.	16ccc\JJ	.	.	.	.	.	.	.	.	.	16cc\JJ	16ee\JJ	.	.
.	.	8C/	.	8e\	.	4r	.	16ddd\LL	.	8c\	-li	8c\	-li	8g\	-li	8ee\	-li	8cc\L	8ee\L	4g/	.
.	.	.	.	.	.	.	.	16ccc\	.	.	.	.	.	.	.	.	.	.	.	.	.
.	.	8C/J	.	8e\J	.	.	.	16bb\	.	8c\	et	8c\	et	8g\	et	8ee\	et	8cc\J	8ee\J	.	.
.	.	.	.	.	.	.	.	16aa\JJ	.	.	.	.	.	.	.	.	.	.	.	.	.
=5	=5	=5	=5	=5	=5	=5	=5	=5	=5	=5	=5	=5	=5	=5	=5	=5	=5	=5	=5	=5	=5
*	*	*	*	*	*	*	*	*	*	*2\right	*	*	*	*2\right	*	*2\right	*	*	*	*	*
1ryy	1ryy	8BB/L	.	8d\L	.	2r	.	8gg\L	.	2B\	ter-	(4d\	ter-	2g\	ter-	2dd\	ter-	4g/	8dd\L	2g/	4dd\
.	.	8BB/	.	8d\	.	.	.	16aa\L	.	.	.	.	.	.	.	.	.	.	16dd\L	.	.
.	.	.	.	.	.	.	.	16gg\JJ	.	.	.	.	.	.	.	.	.	.	16dd\JJ	.	.
.	.	8BB/	.	8d\	.	.	.	16gg\LL	.	.	.	4B\)	.	.	.	.	.	8g/L	8dd\L	.	4dd\
.	.	.	.	.	.	.	.	16ff\	.	.	.	.	.	.	.	.	.	.	.	.	.
.	.	8BB/J	.	8d\J	.	.	.	16ee\	.	.	.	.	.	.	.	.	.	8g/J	8dd\J	.	.
.	.	.	.	.	.	.	.	16dd\JJ	.	.	.	.	.	.	.	.	.	.	.	.	.
!	!	!	!	!	!	!	!	!LO:LB:g=original	!	!	!	!LO:LB:g=original	!	!	!	!	!	!	!	!	!
.	.	8C/L	.	8e\L	.	16g/LL	.	4ee\	.	4c\	-rae	4c\	-re	4g\	-rae	4ee\	-rae	4cc\	4ee\	4g/	4ee\
.	.	.	.	.	.	16cc/	.	.	.	.	.	.	.	.	.	.	.	.	.	.	.
.	.	8C/	.	8e\	.	16b/	.	.	.	.	.	.	.	.	.	.	.	.	.	.	.
.	.	.	.	.	.	16cc/JJ	.	.	.	.	.	.	.	.	.	.	.	.	.	.	.
.	.	8C/	.	8e\	.	16dd\LL	.	4r	.	8C/	vi-	8c\	vi-	8g\	vi-	8ee\	vi-	4r	4r	8g/L	8ee\L
.	.	.	.	.	.	16cc\	.	.	.	.	.	.	.	.	.	.	.	.	.	.	.
.	.	8C/J	.	8e\J	.	16b\	.	.	.	8C/	-ſi-	8c\	-ſi-	8g\	-ſi-	8ee\	-ſi-	.	.	8g/J	8ee\J
.	.	.	.	.	.	16a\JJ	.	.	.	.	.	.	.	.	.	.	.	.	.	.	.
!	!	!	!	!	!	!	!	!	!	!LO:LB:g=original	!	!	!	!LO:LB:g=original	!	!LO:LB:g=original	!	!	!	!	!
=6	=6	=6	=6	=6	=6	=6	=6	=6	=6	=6	=6	=6	=6	=6	=6	=6	=6	=6	=6	=6	=6
1ryy	1ryy	8BB/L	.	8d\L	.	8g/L	.	2r	.	4BB/	-bi-	4d\	-bi-	4g\	-bi-	4dd\	-bi-	4g/	4dd\	4g/	4dd\
.	.	8BB/	.	8d\	.	16a/L	.	.	.	.	.	.	.	.	.	.	.	.	.	.	.
.	.	.	.	.	.	16g/JJ	.	.	.	.	.	.	.	.	.	.	.	.	.	.	.
.	.	8BB/	.	8d\	.	16g/LL	.	.	.	8BB/	-li-	8d\	-li-	8g\	-li-	8dd\	-li-	4r	4r	4g/	4dd\
.	.	.	.	.	.	16f/	.	.	.	.	.	.	.	.	.	.	.	.	.	.	.
.	.	8BB/J	.	8d\J	.	16e/	.	.	.	8BB/	-um	8d\	-um	8g\	-um	8dd\	-um	.	.	.	.
.	.	.	.	.	.	16d/JJ	.	.	.	.	.	.	.	.	.	.	.	.	.	.	.
*	*	*Xtremolo	*	*Xtremolo	*	*	*	*	*	*	*	*	*	*	*	*	*	*	*	*2\right	*
!	!	!LO:TX:t=P:problem=mixed beam	!	!	!	!LO:TX:t=P:problem=mixed beam	!	!	!	!	!	!	!	!	!	!	!	!	!	!	!
.	.	8C/L	.	8g\L	.	8e/L	.	16ee\LL	.	4C/	Om-	4e\	Om-	4g\	om-	4cc\	om-	4c/	4cc\	2cc\	4ee\
.	.	.	.	.	.	.	.	16cc\	.	.	.	.	.	.	.	.	.	.	.	.	.
!	!	!	!	!	!	!	!	!LO:TX:t=P:problem=wysokość nuty niejasna, \nnad nutą litera "e"	!	!	!	!	!	!	!	!	!	!	!	!	!
.	.	8c\	.	8g\	.	8ee\J	.	16ee\	.	.	.	.	.	.	.	.	.	.	.	.	.
.	.	.	.	.	.	.	.	16cc\JJ	.	.	.	.	.	.	.	.	.	.	.	.	.
!	!	!	!	!	!	!LO:LB:g=original	!	!	!	!	!	!	!	!	!	!	!	!	!	!	!
.	.	8A\	.	8c\	.	16ff\LL	.	16ff\LL	.	8A\	-ni-	8c\	-ni-	8f\	-ni-	4cc\	-ni-	8c/L	8cc\L	.	4ff\
.	.	.	.	.	.	16cc\	.	16cc\	.	.	.	.	.	.	.	.	.	.	.	.	.
*	*	*custos:E	*	*	*	*	*	*	*	*	*	*	*	*	*	*	*	*	*	*	*
.	.	8A\J	.	8c\J	.	16ff\	.	16ff\	.	8A\	-um	8c\	-um	8f\	-um	.	.	8c/J	8cc\J	.	.
.	.	.	.	.	.	16cc\JJ	.	16cc\JJ	.	.	.	.	.	.	.	.	.	.	.	.	.
!	!	!LO:LB:g=original	!	!	!	!	!	!	!	!	!	!	!	!	!	!	!	!	!	!	!
=7	=7	=7	=7	=7	=7	=7	=7	=7	=7	=7	=7	=7	=7	=7	=7	=7	=7	=7	=7	=7	=7
*	*	*	*	*	*	*	*	*	*	*	*	*	*ij	*	*	*	*	*	*	*	*
1ryy	1ryy	8E\L	.	8e\L	.	16gg\LL	.	16gg\LL	.	4E\	et	4c\	om-	4g\	et	2cc\	-um	4c/	2cc\	4cc\	4gg\
.	.	.	.	.	.	16cc\	.	16cc\	.	.	.	.	.	.	.	.	.	.	.	.	.
.	.	8E\	.	8e\	.	16gg\	.	16gg\	.	.	.	.	.	.	.	.	.	.	.	.	.
.	.	.	.	.	.	16cc\JJ	.	16cc\JJ	.	.	.	.	.	.	.	.	.	.	.	.	.
!	!	!	!	!	!	!	!	!	!	!	!	!	!	!LO:SIC:o:s:v:t=to były dwie ósemki, ale \nprzerobione na jedną ćwierćnutę	!	!	!	!	!	!	!
.	.	8F\	.	8f\	.	16aa\LL	.	16aa\LL	.	4F\	in-	8c\	-ni-	4a\	in-	.	.	4c/	.	8cc\L	4aa\
.	.	.	.	.	.	16cc\	.	16cc\	.	.	.	.	.	.	.	.	.	.	.	.	.
.	.	8F\J	.	8f\J	.	16aa\	.	16aa\	.	.	.	8c\	-um	.	.	.	.	.	.	8cc\J	.
*	*	*	*	*	*	*	*	*	*	*	*	*	*Xij	*	*	*	*	*	*	*	*
.	.	.	.	.	.	16cc\JJ	.	16cc\JJ	.	.	.	.	.	.	.	.	.	.	.	.	.
.	.	8c\L	.	8g\L	.	16ee\LL	.	16ee\LL	.	(4c\	-vi-	4c\	et	4e\	-vi-	4cc\	et	2c/	4cc\	4cc\	4ee\
.	.	.	.	.	.	16cc\	.	16cc\	.	.	.	.	.	.	.	.	.	.	.	.	.
.	.	8c\	.	8g\	.	16b\	.	16b\	.	.	.	.	.	.	.	.	.	.	.	.	.
.	.	.	.	.	.	16cc\JJ	.	16cc\JJ	.	.	.	.	.	.	.	.	.	.	.	.	.
.	.	8A\	.	8c\	.	16ff\LL	.	16ff\LL	.	4A\)	.	4A\	in	4f\	-ſi-	4cc\	in-	.	8cc\L	4cc\	4ff\
.	.	.	.	.	.	16cc\	.	16cc\	.	.	.	.	.	.	.	.	.	.	.	.	.
.	.	8A\J	.	8c\J	.	16b\	.	16b\	.	.	.	.	.	.	.	.	.	.	8cc\J	.	.
.	.	.	.	.	.	16cc\JJ	.	16cc\JJ	.	.	.	.	.	.	.	.	.	.	.	.	.
!	!	!	!	!LO:LB:g=original	!	!	!	!	!	!	!	!	!	!	!	!	!	!	!	!	!
=8	=8	=8	=8	=8	=8	=8	=8	=8	=8	=8	=8	=8	=8	=8	=8	=8	=8	=8	=8	=8	=8
1ryy	1ryy	8E\L	.	8g\L	.	16gg\LL	.	16gg\LL	.	(4E\	-ſi-	4c\	vi-	4g\	-bi-	4cc\	-vi-	4c/	4cc\	4cc\	4gg\
.	.	.	.	.	.	16cc\	.	16cc\	.	.	.	.	.	.	.	.	.	.	.	.	.
.	.	8E\	.	8g\	.	16b\	.	16b\	.	.	.	.	.	.	.	.	.	.	.	.	.
.	.	.	.	.	.	16cc\JJ	.	16cc\JJ	.	.	.	.	.	.	.	.	.	.	.	.	.
*	*	*	*	*	*	*	*	*	*	*	*	*	*	*	*	*	*	*	*	*custos:b	*
.	.	8F\	.	8a\	.	16aa\LL	.	16aa\LL	.	4F\)	.	4c\	-ſi-	4a\	.	4cc\	-ſi-	4cc\	4cc\	4cc\	4aa\
.	.	.	.	.	.	16cc\	.	16cc\	.	.	.	.	.	.	.	.	.	.	.	.	.
.	.	8F\J	.	8a\J	.	16b\	.	16b\	.	.	.	.	.	.	.	.	.	.	.	.	.
.	.	.	.	.	.	16cc\JJ	.	16cc\JJ	.	.	.	.	.	.	.	.	.	.	.	.	.
!	!	!	!	!	!	!	!	!	!	!	!	!	!	!	!	!	!	!LO:LB:g=original	!	!LO:LB:g=original	!
.	.	8G\L	.	8g\L	.	16b\LL	.	16b\LL	.	4.G\	-bi-	4B\	-bi-	4.g\	.	4.b\	-bi-	4g/	4g/	4b\	4gg\
.	.	.	.	.	.	16gg\	.	16gg\	.	.	.	.	.	.	.	.	.	.	.	.	.
.	.	8G\	.	8g\	.	16ff#X\	.	16ff#X\	.	.	.	.	.	.	.	.	.	.	.	.	.
.	.	.	.	.	.	16gg\JJ	.	16gg\JJ	.	.	.	.	.	.	.	.	.	.	.	.	.
.	.	8D\	.	8d\	.	16aa\LL	.	16aa\LL	.	.	.	4d\	-li-	.	.	.	.	8g/L	8dd\L	8b\L	8gg\L
.	.	.	.	.	.	16gg\	.	16gg\	.	.	.	.	.	.	.	.	.	.	.	.	.
*	*	*	*	*	*	*	*	*	*	*	*	*	*	*	*	*	*	*	*	*	*custos:gg
.	.	8BB\J	.	8B\J	.	16ff#\	.	16ff#\	.	8G\	-li-	.	.	8g\	-li-	8b\	-li-	8g/J	8dd\J	8b\J	8gg\J
.	.	.	.	.	.	16gg\JJ	.	16gg\JJ	.	.	.	.	.	.	.	.	.	.	.	.	.
!	!	!	!	!	!	!	!	!	!	!	!	!	!	!	!	!	!	!	!	!	!LO:LB:g=original
=9	=9	=9	=9	=9	=9	=9	=9	=9	=9	=9	=9	=9	=9	=9	=9	=9	=9	=9	=9	=9	=9
!	!	!	!	!	!	!	!	!	!	!	!	!	!	!	!	!	!	!	!	!	!LO:TX:t=P:problem=mixed beam
1ryy	1ryy	8GG/L	.	8G/L	.	4g/	.	4g/	.	4G\	-um	4d\	-um	4g\	-um	4b\	-um	8g/L	4dd\	8b\L	8gg\L
.	.	8GG/	.	8G/	.	.	.	.	.	.	.	.	.	.	.	.	.	16g/L	.	8g\	8g/
.	.	.	.	.	.	.	.	.	.	.	.	.	.	.	.	.	.	16g/JJ	.	.	.
.	.	8BB/	.	8B/	.	4r	.	4r	.	4r	.	4r	.	4r	.	4r	.	8g/L	4r	8b\	8b/
.	.	8D/J	.	8d/J	.	.	.	.	.	.	.	.	.	.	.	.	.	8g/J	.	8dd\J	8dd/J
*	*	*2\right	*	*	*	*2\right	*	*	*	*	*	*	*	*	*	*	*	*	*	*	*
*	*	*tremolo	*	*tremolo	*	*tremolo	*	*	*	*	*	*	*	*	*	*	*	*	*	*	*
!	!	!	!	!	!	!	!	!	!	!	!	!LO:TX:t=P:problem=cauda nuty przekreślona	!	!	!	!	!	!	!	!	!
.	.	8G\L	.	8g\L	.	16b\LL	.	16b\LL	.	4G\	Et	4d\	Et	2r	.	4b\	et	4g/	2r	4b\	2gg\
.	.	.	.	.	.	16b\	.	16gg\	.	.	.	.	.	.	.	.	.	.	.	.	.
.	.	8G\	.	8g\	.	16b\	.	16ff#X\	.	.	.	.	.	.	.	.	.	.	.	.	.
.	.	.	.	.	.	16b\	.	16gg\JJ	.	.	.	.	.	.	.	.	.	.	.	.	.
.	.	8G\	.	8g\	.	16b\	.	16aa\LL	.	4G\	in	4d\	in	.	.	4b\	in	4r	.	8b\L	.
.	.	.	.	.	.	16b\	.	16gg\	.	.	.	.	.	.	.	.	.	.	.	.	.
.	.	8G\J	.	8g\J	.	16b\	.	16ff#\	.	.	.	.	.	.	.	.	.	.	.	8b\J	.
.	.	.	.	.	.	16b\JJ	.	16gg\JJ	.	.	.	.	.	.	.	.	.	.	.	.	.
!	!	!	!	!	!	!	!	!	!	!	!	!	!	!	!	!	!	!	!LO:LB:g=original	!	!
=10	=10	=10	=10	=10	=10	=10	=10	=10	=10	=10	=10	=10	=10	=10	=10	=10	=10	=10	=10	=10	=10
1ryy	1ryy	8E\L	.	8e\L	.	16cc\LL	.	16cc\LL	.	4E\	u-	4c\	u-	4g\	Et	4cc\	u-	0r	0r	4cc\	4gg\
.	.	.	.	.	.	16cc\	.	16gg\	.	.	.	.	.	.	.	.	.	.	.	.	.
.	.	8E\	.	8e\	.	16cc\	.	16ff\	.	.	.	.	.	.	.	.	.	.	.	.	.
.	.	.	.	.	.	16cc\	.	16gg\JJ	.	.	.	.	.	.	.	.	.	.	.	.	.
.	.	8E\	.	8e\	.	16cc\	.	16aa\LL	.	4E\	-num	4c\	-num	4g\	in	4cc\	-num	.	.	4cc\	8gg\L
.	.	.	.	.	.	16cc\	.	16gg\	.	.	.	.	.	.	.	.	.	.	.	.	.
.	.	8E\J	.	8e\J	.	16cc\	.	16ff\	.	.	.	.	.	.	.	.	.	.	.	.	8gg\J
.	.	.	.	.	.	16cc\JJ	.	16gg\JJ	.	.	.	.	.	.	.	.	.	.	.	.	.
!	!	!	!	!	!	!	!	!LO:LB:g=original	!	!	!	!	!	!	!	!	!	!	!	!	!
.	.	8BB/L	.	8B/L	.	16dd\LL	.	16dd\LL	.	4BB/	D(o-	4B\	D(o-	4g\	Do-	4dd\	Do-	.	.	4dd\	2gg\
.	.	.	.	.	.	16dd\	.	16gg\	.	.	.	.	.	.	.	.	.	.	.	.	.
.	.	8BB/	.	8B/	.	16dd\	.	16ff\	.	.	.	.	.	.	.	.	.	.	.	.	.
.	.	.	.	.	.	16dd\	.	16gg\JJ	.	.	.	.	.	.	.	.	.	.	.	.	.
.	.	8BB/	.	8B/	.	16dd\	.	16aa\LL	.	8BB/	-mi)-	8B\	-mi)-	8g\	-mi-	8dd\	-mi-	.	.	8dd\L	.
.	.	.	.	.	.	16dd\	.	16gg\	.	.	.	.	.	.	.	.	.	.	.	.	.
.	.	8BB/J	.	8B/J	.	16dd\	.	16ff\	.	8BB/	-num	8B\	-num	8g\	-num	8dd\	-num	.	.	8dd\J	.
.	.	.	.	.	.	16dd\JJ	.	16gg\JJ	.	.	.	.	.	.	.	.	.	.	.	.	.
!	!	!	!	!	!	!	!	!	!	!	!	!LO:LB:g=original	!	!	!	!	!	!	!	!	!
=11	=11	=11	=11	=11	=11	=11	=11	=11	=11	=11	=11	=11	=11	=11	=11	=11	=11	=11	=11	=11	=11
*	*	*	*	*	*	*^	*	*^	*	*	*	*	*	*	*	*	*	*	*	*	*
1ryy	1ryy	8C/L	.	8c/L	.	16ee\LL	2ryy	.	16ee\LL	2a\yy	.	4C/	Je-	4c\	Je-	4g\	Je-	4ee\	Je-	.	.	4ee\	4gg\
.	.	.	.	.	.	16ee\	.	.	16gg\	.	.	.	.	.	.	.	.	.	.	.	.	.	.
.	.	8C/	.	8c/	.	16ee\	.	.	16ff\	.	.	.	.	.	.	.	.	.	.	.	.	.	.
.	.	.	.	.	.	16ee\	.	.	16gg\JJ	.	.	.	.	.	.	.	.	.	.	.	.	.	.
.	.	8C/	.	8c/	.	16ee\	.	.	16aa\LL	.	.	4C/	-ſum	4e\	-ſum	4g\	-ſum	4ee\	-ſum	.	.	8ee\L	8gg\L
.	.	.	.	.	.	16ee\	.	.	16gg\	.	.	.	.	.	.	.	.	.	.	.	.	.	.
.	.	8C/J	.	8c/J	.	16ee\	.	.	16ff\	.	.	.	.	.	.	.	.	.	.	.	.	8ee\J	8gg\J
.	.	.	.	.	.	16ee\JJ	.	.	16gg\JJ	.	.	.	.	.	.	.	.	.	.	.	.	.	.
*	*	*	*	*	*	*	*tremolo	*	*tremolo	*tremolo	*	*	*	*	*	*	*	*	*	*	*	*	*
*	*	*	*	*	*	*	*	*	*	*2\right	*	*	*	*	*	*	*	*	*	*	*	*	*
.	.	8C#X/L	.	8c#X/L	.	16ee/LL	16a\LL	.	16gg/LL	16a\LL	.	2C#X/	X-	4e\	X-	4a\	Chri-	4ee\	Chri-	.	.	2ee\	4gg\
.	.	.	.	.	.	16ee/	16a\	.	16gg/	16a\	.	.	.	.	.	.	.	.	.	.	.	.	.
.	.	8C#X/	.	8c#X/	.	16ee/	16a\	.	16gg/	16a\	.	.	.	.	.	.	.	.	.	.	.	.	.
.	.	.	.	.	.	16ee/	16a\	.	16gg/	16a\	.	.	.	.	.	.	.	.	.	.	.	.	.
.	.	8C#X/	.	8c#X/	.	16ee/	16a\	.	16gg/	16a\	.	.	.	4c#X\	-tum	4a\	-stum	4ee\	-stum	.	.	.	4gg\
.	.	.	.	.	.	16ee/	16a\	.	16gg/	16a\	.	.	.	.	.	.	.	.	.	.	.	.	.
.	.	8C#X/J	.	8c#X/J	.	16ee/	16a\	.	16gg/	16a\	.	.	.	.	.	.	.	.	.	.	.	.	.
.	.	.	.	.	.	16ee/JJ	16a\JJ	.	16gg/JJ	16a\JJ	.	.	.	.	.	.	.	.	.	.	.	.	.
*	*	*	*	*	*	*Xtremolo	*Xtremolo	*	*Xtremolo	*Xtremolo	*	*	*	*	*	*	*	*	*	*	*	*	*
*	*	*	*	*	*	*v	*v	*	*	*	*	*	*	*	*	*	*	*	*	*	*	*	*
*	*	*	*	*	*	*	*	*v	*v	*	*	*	*	*	*	*	*	*	*	*	*	*
=12	=12	=12	=12	=12	=12	=12	=12	=12	=12	=12	=12	=12	=12	=12	=12	=12	=12	=12	=12	=12	=12
1ryy	1ryy	8D\L	.	8d\L	.	4ff#X/ 4a/ 4d/	.	4ff#X/ 4a/ 4d/	.	4D\	-tum	4d\	Fi-	4a\	fi-	4dd\	fi-	4dd\	4dd\	4dd\	4ff#X\
.	.	8D\	.	8d\	.	.	.	.	.	.	.	.	.	.	.	.	.	.	.	.	.
.	.	8D\	.	8d\	.	16ff#\LL	.	16ff#\LL	.	4D\	Fi-	8d\	-li-	8a\	-li-	8dd\	-li-	8dd\L	8dd\L	4dd\	8ff#\L
.	.	.	.	.	.	16gg\	.	16gg\	.	.	.	.	.	.	.	.	.	.	.	.	.
*	*	*	*	*	*	*	*	*	*	*	*	*	*	*custos:a	*	*	*	*	*	*	*
.	.	8D\J	.	8d\J	.	16ff#\	.	16ff#\	.	.	.	8d\	-um	8a\	-um	8dd\	-um	8dd\J	8dd\J	.	8gg\J
.	.	.	.	.	.	16gg\JJ	.	16gg\JJ	.	.	.	.	.	.	.	.	.	.	.	.	.
!	!	!	!	!	!	!	!	!	!	!	!	!	!	!LO:LB:g=original	!	!LO:LB:g=original	!	!	!	!	!
.	.	8F#X\L	.	8d\L	.	16aa\LL	.	16aa\LL	.	4F#X\	-li-	4d\	De-	4a\	De-	4cc\	De-	4dd\	4dd\	4a/	4aa\
.	.	.	.	.	.	16gg\	.	16gg\	.	.	.	.	.	.	.	.	.	.	.	.	.
.	.	8F#X\	.	8d\	.	16ff#\	.	16ff#\	.	.	.	.	.	.	.	.	.	.	.	.	.
.	.	.	.	.	.	16ee\JJ	.	16ee\JJ	.	.	.	.	.	.	.	.	.	.	.	.	.
.	.	8F#X\	.	8d\	.	16dd\LL	.	16dd\LL	.	4F#\	-um	4d\	-i	4a\	-um	4cc\	-i	4dd\	4dd\	4a/	4cc/
.	.	.	.	.	.	16cc\	.	16cc\	.	.	.	.	.	.	.	.	.	.	.	.	.
.	.	8F#X\J	.	8d\J	.	16b\	.	16b\	.	.	.	.	.	.	.	.	.	.	.	.	.
.	.	.	.	.	.	16a\JJ	.	16a\JJ	.	.	.	.	.	.	.	.	.	.	.	.	.
*	*	*Xtremolo	*	*Xtremolo	*	*	*	*	*	*	*	*	*	*	*	*	*	*	*	*	*
!	!	!	!	!	!	!LO:LB:g=original	!	!	!	!	!	!	!	!	!	!	!	!	!	!	!
=13	=13	=13	=13	=13	=13	=13	=13	=13	=13	=13	=13	=13	=13	=13	=13	=13	=13	=13	=13	=13	=13
1ryy	1ryy	8G\L	.	8d\L	.	16b\LL	.	16b\LL	.	8G\	De-	4d\	u-	4g\	u-	4b\	u-	4g/	4dd\	4g/	4b\
.	.	.	.	.	.	16b\	.	16gg\	.	.	.	.	.	.	.	.	.	.	.	.	.
.	.	8G\	.	8d\	.	16b\	.	16gg\	.	8G\	-i	.	.	.	.	.	.	.	.	.	.
.	.	.	.	.	.	16b\JJ	.	16gg\JJ	.	.	.	.	.	.	.	.	.	.	.	.	.
.	.	8E\	.	8e\	.	16b\LL	.	16gg\LL	.	8E\	u-	4e\	-ni-	4g\	-ni-	4b\	-ni-	4r	4r	4b/	4gg\
.	.	.	.	.	.	16b\	.	16gg\	.	.	.	.	.	.	.	.	.	.	.	.	.
.	.	8E\J	.	8e\J	.	16b\	.	16gg\	.	8E\	-ni-	.	.	.	.	.	.	.	.	.	.
.	.	.	.	.	.	16b\JJ	.	16gg\JJ	.	.	.	.	.	.	.	.	.	.	.	.	.
*	*	*	*	*	*	*tremolo	*	*	*	*	*	*	*	*	*	*	*	*	*	*	*
.	.	8C/L	.	8e\L	.	16a/LL	.	16gg\LL	.	4C/	-ge-	4e\	-ge-	4g\	-ge-	4a\	-ge-	4r	4r	2a/	4gg\
.	.	.	.	.	.	16a/	.	16gg\	.	.	.	.	.	.	.	.	.	.	.	.	.
.	.	8C/	.	8e\	.	16a/	.	16gg\	.	.	.	.	.	.	.	.	.	.	.	.	.
.	.	.	.	.	.	16a/	.	16gg\JJ	.	.	.	.	.	.	.	.	.	.	.	.	.
.	.	8D/	.	8d\	.	16a/	.	16ff#X\LL	.	4D/	-ni-	4d\	-ni-	4f#X\	-ni-	4a\	-ni-	4dd\	4dd\	.	4ff#X\
.	.	.	.	.	.	16a/	.	16ff#\	.	.	.	.	.	.	.	.	.	.	.	.	.
.	.	8D/J	.	8d\J	.	16a/	.	16ff#\	.	.	.	.	.	.	.	.	.	.	.	.	.
.	.	.	.	.	.	16a/JJ	.	16ff#\JJ	.	.	.	.	.	.	.	.	.	.	.	.	.
*	*	*	*	*	*	*Xtremolo	*	*	*	*	*	*	*	*	*	*	*	*	*	*	*
!	!	!LO:LB:g=original	!	!	!	!	!	!	!	!	!	!	!	!	!	!	!	!	!	!	!
=14	=14	=14	=14	=14	=14	=14	=14	=14	=14	=14	=14	=14	=14	=14	=14	=14	=14	=14	=14	=14	=14
1ryy	1ryy	4GG/	.	4d\	.	4b/	.	4gg\	.	4GG/	-tum	4d\	-tum	4g\	-tum.	4b\	-tum	4g/	4dd\	4b/	4gg\
.	.	4r	.	4r	.	4r	.	4r	.	4r	.	4r	.	4r	.	4r	.	4r	4r	4r	4r
.	.	2r	.	2r	.	2r	.	2r	.	2r	.	2r	.	2r	.	2r	.	2r	2r	2r	2r
=15	=15	=15	=15	=15	=15	=15	=15	=15	=15	=15	=15	=15	=15	=15	=15	=15	=15	=15	=15	=15	=15
!	!	!	!	!	!	!LO:TX:a:t=3.	!	!LO:TX:a:t=3	!	!LO:TX:a:t=15	!	!	!	!	!	!	!	!LO:TX:a:t=15	!	!LO:TX:a:t=15	!
1ryy	1ryy	0r	.	0r	.	0r	.	0r	.	00r	.	0r	.	00r	.	00r	.	00r	00r	00r	00r
=16	=16	=16	=16	=16	=16	=16	=16	=16	=16	=16	=16	=16	=16	=16	=16	=16	=16	=16	=16	=16	=16
1ryy	1ryy	.	.	.	.	.	.	.	.	.	.	.	.	.	.	.	.	.	.	.	.
=17	=17	=17	=17	=17	=17	=17	=17	=17	=17	=17	=17	=17	=17	=17	=17	=17	=17	=17	=17	=17	=17
1ryy	1ryy	1r	.	1r	.	1r	.	1r	.	.	.	1r	.	.	.	.	.	.	.	.	.
!	!	!	!	!	!	!	!	!LO:LB:g=original	!	!	!	!	!	!	!	!	!	!	!	!	!
=18	=18	=18	=18	=18	=18	=18	=18	=18	=18	=18	=18	=18	=18	=18	=18	=18	=18	=18	=18	=18	=18
!	!	!	!LO:DY:rj:a:t=pia&colon;	!	!LO:DY:rj:a:t=pia&colon;	!	!LO:DY:a:t=p&colon;	!	!LO:DY:t=pia&colon;	!	!	!LO:TX:rj:a:i:t=Solo.	!	!	!	!	!	!	!	!	!
*	*	*	*	*	*	*	*	*tremolo	*	*	*	*	*	*	*	*	*	*	*	*	*
1ryy	1ryy	4r	p	8g\L	p	8b/L	p	8dd\L	p	.	.	4.d\	Et	.	.	.	.	.	.	.	.
.	.	.	.	8g\	.	8b/	.	8dd\	.	.	.	.	.	.	.	.	.	.	.	.	.
.	.	4G\	.	8g\	.	8b/	.	8dd\	.	.	.	.	.	.	.	.	.	.	.	.	.
.	.	.	.	8g\J	.	8b/J	.	8dd\J	.	.	.	8d\	ex	.	.	.	.	.	.	.	.
*	*	*	*	*tremolo	*	*	*	*	*	*	*	*	*	*	*	*	*	*	*	*	*
.	.	4B\	.	8g\L	.	8b/L	.	8dd\L	.	.	.	4d\	Pa-	.	.	.	.	.	.	.	.
.	.	.	.	8g\	.	8b/	.	8dd\	.	.	.	.	.	.	.	.	.	.	.	.	.
.	.	4G\	.	8g\	.	8b/	.	8dd\	.	.	.	4d\	-tre	.	.	.	.	.	.	.	.
.	.	.	.	8g\J	.	8b/J	.	8dd\J	.	.	.	.	.	.	.	.	.	.	.	.	.
*	*	*	*	*	*	*	*	*Xtremolo	*	*	*	*	*	*	*	*	*	*	*	*	*
=19	=19	=19	=19	=19	=19	=19	=19	=19	=19	=19	=19	=19	=19	=19	=19	=19	=19	=19	=19	=19	=19
1ryy	1ryy	4A\	.	8f#X\L	.	8b/L	.	8dd\L	.	00r	.	8d\L	na-	00r	.	00r	.	00r	00r	00r	00r
.	.	.	.	8f#X\	.	8a/	.	8cc\	.	.	.	8c\J	.	.	.	.	.	.	.	.	.
.	.	4F#X\	.	8f#X\	.	8a/	.	8cc\	.	.	.	4c\	-tum	.	.	.	.	.	.	.	.
*	*	*	*	*custos:f#	*	*	*	*	*	*	*	*	*	*	*	*	*	*	*	*	*
.	.	.	.	8f#X\J	.	8a/J	.	8cc\J	.	.	.	.	.	.	.	.	.	.	.	.	.
!	!	!	!	!LO:LB:g=original	!	!	!	!	!	!	!	!	!	!	!	!	!	!	!	!	!
*	*	*	*	*	*	*tremolo	*	*	*	*	*	*	*	*	*	*	*	*	*	*	*
.	.	4D\	.	8f#X\L	.	8a/L	.	8cc\L	.	.	.	2r	.	.	.	.	.	.	.	.	.
.	.	.	.	8f#\	.	8a/	.	8cc\	.	.	.	.	.	.	.	.	.	.	.	.	.
.	.	4F#\	.	8f#\	.	8a/	.	8cc\	.	.	.	.	.	.	.	.	.	.	.	.	.
.	.	.	.	8f#\J	.	8a/J	.	8cc\J	.	.	.	.	.	.	.	.	.	.	.	.	.
*	*	*	*	*	*	*Xtremolo	*	*	*	*	*	*	*	*	*	*	*	*	*	*	*
=20	=20	=20	=20	=20	=20	=20	=20	=20	=20	=20	=20	=20	=20	=20	=20	=20	=20	=20	=20	=20	=20
1ryy	1ryy	8D\L	.	8d\L	.	8cc\L	.	8cc\L	.	.	.	4.c\	an-	.	.	.	.	.	.	.	.
.	.	8D\	.	8d\	.	8cc\	.	8aa\	.	.	.	.	.	.	.	.	.	.	.	.	.
.	.	8F\	.	8d\	.	8cc\	.	8aa\	.	.	.	.	.	.	.	.	.	.	.	.	.
.	.	8F\J	.	8d\J	.	8cc\J	.	8aa\J	.	.	.	8c\	-te	.	.	.	.	.	.	.	.
!	!	!	!	!	!	!	!	!	!	!	!	!LO:LB:g=original	!	!	!	!	!	!	!	!	!
*	*	*tremolo	*	*	*	*tremolo	*	*	*	*	*	*	*	*	*	*	*	*	*	*	*
.	.	8F\L	.	8d\L	.	8cc\L	.	8aa\L	.	.	.	4c\	Om-	.	.	.	.	.	.	.	.
.	.	8F\	.	8d\	.	8cc\	.	8aa\	.	.	.	.	.	.	.	.	.	.	.	.	.
.	.	8F\	.	8d\	.	8cc\	.	8aa\	.	.	.	8c\	-ni-	.	.	.	.	.	.	.	.
.	.	8F\J	.	8d\J	.	8cc\J	.	8aa\J	.	.	.	8c\	-a	.	.	.	.	.	.	.	.
*	*	*Xtremolo	*	*	*	*Xtremolo	*	*	*	*	*	*	*	*	*	*	*	*	*	*	*
=21	=21	=21	=21	=21	=21	=21	=21	=21	=21	=21	=21	=21	=21	=21	=21	=21	=21	=21	=21	=21	=21
1ryy	1ryy	4G\	.	8d\L	.	8cc\L	.	8aa\L	.	.	.	8c\	sae-	.	.	.	.	.	.	.	.
.	.	.	.	8d\	.	8b\	.	8gg\	.	.	.	8B\	-cu-	.	.	.	.	.	.	.	.
.	.	4G\	.	8d\	.	8b\	.	8gg\	.	.	.	4B\	-la	.	.	.	.	.	.	.	.
.	.	.	.	8d\J	.	8b\J	.	8gg\J	.	.	.	.	.	.	.	.	.	.	.	.	.
*	*	*	*	*	*	*tremolo	*	*	*	*	*	*	*	*	*	*	*	*	*	*	*
.	.	4B\	.	8d\L	.	8b\L	.	8gg\L	.	.	.	2r	.	.	.	.	.	.	.	.	.
.	.	.	.	8d\	.	8b\	.	8gg\	.	.	.	.	.	.	.	.	.	.	.	.	.
.	.	4G\	.	8d\	.	8b\	.	8gg\	.	.	.	.	.	.	.	.	.	.	.	.	.
.	.	.	.	8d\J	.	8b\J	.	8gg\J	.	.	.	.	.	.	.	.	.	.	.	.	.
=22	=22	=22	=22	=22	=22	=22	=22	=22	=22	=22	=22	=22	=22	=22	=22	=22	=22	=22	=22	=22	=22
*	*	*	*	*	*	*	*	*	*	*	*	*2\right	*	*	*	*	*	*	*	*	*
1ryy	1ryy	4D#X/	.	8B/L	.	8a/L	.	8gg\L	.	.	.	2f#X\	De-	.	.	.	.	.	.	.	.
.	.	.	.	8B/	.	8a/	.	8ff#X\	.	.	.	.	.	.	.	.	.	.	.	.	.
.	.	4F#X/	.	8B/	.	8a/	.	8ff#\	.	.	.	.	.	.	.	.	.	.	.	.	.
.	.	.	.	8B/J	.	8a/J	.	8ff#\J	.	.	.	.	.	.	.	.	.	.	.	.	.
.	.	4D#/	.	8B/L	.	8a/L	.	8ff#\L	.	.	.	4f#\	-um	.	.	.	.	.	.	.	.
.	.	.	.	8B/	.	8a/	.	8ff#\	.	.	.	.	.	.	.	.	.	.	.	.	.
.	.	4BB/	.	8B/	.	8a/	.	8ff#\	.	.	.	4A/	de	.	.	.	.	.	.	.	.
.	.	.	.	8B/J	.	8a/J	.	8ff#\J	.	.	.	.	.	.	.	.	.	.	.	.	.
=23	=23	=23	=23	=23	=23	=23	=23	=23	=23	=23	=23	=23	=23	=23	=23	=23	=23	=23	=23	=23	=23
1ryy	1ryy	4E\	.	8B/L	.	8g/L	.	8ff\L	.	00r	.	8A/L	De-	00r	.	00r	.	00r	00r	00r	00r
.	.	.	.	8B/	.	8g/	.	8ee\	.	.	.	8G/J	.	.	.	.	.	.	.	.	.
.	.	4B\	.	8B/	.	8g/	.	8ee\	.	.	.	4G/	-o	.	.	.	.	.	.	.	.
.	.	.	.	8B/J	.	8g/J	.	8ee\J	.	.	.	.	.	.	.	.	.	.	.	.	.
.	.	4G\	.	8B/L	.	8g/L	.	8ee\L	.	.	.	4r	.	.	.	.	.	.	.	.	.
.	.	.	.	8B/	.	8g/	.	8ee\	.	.	.	.	.	.	.	.	.	.	.	.	.
.	.	4E\	.	8B/	.	8g/	.	8ee\	.	.	.	4B\	Lu-	.	.	.	.	.	.	.	.
.	.	.	.	8B/J	.	8g/J	.	8ee\J	.	.	.	.	.	.	.	.	.	.	.	.	.
=24	=24	=24	=24	=24	=24	=24	=24	=24	=24	=24	=24	=24	=24	=24	=24	=24	=24	=24	=24	=24	=24
*	*	*tremolo	*	*	*	*	*	*	*	*	*	*	*	*	*	*	*	*	*	*	*
!	!	!	!	!LO:TX:t=P:problem=mixed beam	!	!	!	!	!	!	!	!	!	!	!	!	!	!	!	!	!
1ryy	1ryy	8A\L	.	8A/L	.	8cc\L	.	8ee\L	.	.	.	2c\	-men	.	.	.	.	.	.	.	.
.	.	8A\	.	8a\	.	8cc\	.	8ee\	.	.	.	.	.	.	.	.	.	.	.	.	.
.	.	8A\	.	8a\	.	8cc\	.	8ee\	.	.	.	.	.	.	.	.	.	.	.	.	.
.	.	8A\J	.	8a\J	.	8cc\J	.	8ee\J	.	.	.	.	.	.	.	.	.	.	.	.	.
.	.	8F#X\L	.	8a\L	.	8cc\L	.	8dd\L	.	.	.	2c\	de	.	.	.	.	.	.	.	.
.	.	8F#X\	.	8a\	.	8cc\	.	8dd\	.	.	.	.	.	.	.	.	.	.	.	.	.
.	.	8F#X\	.	8a\	.	8cc\	.	8dd\	.	.	.	.	.	.	.	.	.	.	.	.	.
*	*	*	*	*	*	*	*	*custos:dd	*	*	*	*	*	*	*	*	*	*	*	*	*
.	.	8F#X\J	.	8a\J	.	8cc\J	.	8dd\J	.	.	.	.	.	.	.	.	.	.	.	.	.
!	!	!	!	!	!	!LO:LB:g=original	!	!LO:LB:g=original	!	!	!	!	!	!	!	!	!	!	!	!	!
=25	=25	=25	=25	=25	=25	=25	=25	=25	=25	=25	=25	=25	=25	=25	=25	=25	=25	=25	=25	=25	=25
1ryy	1ryy	8G\L	.	8a\L	.	8b/L	.	8dd\L	.	.	.	4.B\	Lu-	.	.	.	.	.	.	.	.
.	.	8G\	.	8a\	.	8b/	.	8dd\	.	.	.	.	.	.	.	.	.	.	.	.	.
.	.	8G\	.	8a\	.	8b/	.	8dd\	.	.	.	.	.	.	.	.	.	.	.	.	.
.	.	8G\J	.	8a\J	.	8b/J	.	8dd\J	.	.	.	8B\	-mi-	.	.	.	.	.	.	.	.
.	.	8E\L	.	8g\L	.	8b/L	.	8cc\L	.	.	.	2B\	-ne	.	.	.	.	.	.	.	.
.	.	8E\	.	8g\	.	8b/	.	8cc\	.	.	.	.	.	.	.	.	.	.	.	.	.
.	.	8E\	.	8g\	.	8b/	.	8cc\	.	.	.	.	.	.	.	.	.	.	.	.	.
.	.	8E\J	.	8g\J	.	8b/J	.	8cc\J	.	.	.	.	.	.	.	.	.	.	.	.	.
!	!	!LO:LB:g=original	!	!	!	!	!	!	!	!	!	!	!	!	!	!	!	!	!	!	!
=26	=26	=26	=26	=26	=26	=26	=26	=26	=26	=26	=26	=26	=26	=26	=26	=26	=26	=26	=26	=26	=26
1ryy	1ryy	8F#X\L	.	8g\L	.	8a/L	.	8cc\L	.	.	.	2A/	De-	.	.	.	.	.	.	.	.
.	.	8F#X\	.	8g\	.	8a/	.	8cc\	.	.	.	.	.	.	.	.	.	.	.	.	.
.	.	8F#X\	.	8g\	.	8a/	.	8cc\	.	.	.	.	.	.	.	.	.	.	.	.	.
.	.	8F#X\J	.	8g\J	.	8a/J	.	8cc\J	.	.	.	.	.	.	.	.	.	.	.	.	.
.	.	8D#X\L	.	8f#X\L	.	8a/L	.	8b/L	.	.	.	2A/	-um	.	.	.	.	.	.	.	.
.	.	8D#X\	.	8f#X\	.	8a/	.	8b/	.	.	.	.	.	.	.	.	.	.	.	.	.
.	.	8D#X\	.	8f#X\	.	8a/	.	8b/	.	.	.	.	.	.	.	.	.	.	.	.	.
.	.	8D#X\J	.	8f#X\J	.	8a/J	.	8b/J	.	.	.	.	.	.	.	.	.	.	.	.	.
*	*	*Xtremolo	*	*	*	*Xtremolo	*	*	*	*	*	*	*	*	*	*	*	*	*	*	*
=27	=27	=27	=27	=27	=27	=27	=27	=27	=27	=27	=27	=27	=27	=27	=27	=27	=27	=27	=27	=27	=27
1ryy	1ryy	8E\L	.	8g\L	.	8g/	.	8b/L	.	0r	.	(4G/	ve-	0r	.	0r	.	0r	0r	0r	0r
.	.	8E\	.	8g\	.	4b/	.	8b/	.	.	.	.	.	.	.	.	.	.	.	.	.
.	.	8G\	.	8g\	.	.	.	8ee/	.	.	.	4e\)	.	.	.	.	.	.	.	.	.
.	.	8G\J	.	8g\J	.	4b/	.	8ee/J	.	.	.	.	.	.	.	.	.	.	.	.	.
*	*	*	*	*Xtremolo	*	*	*	*	*	*	*	*	*	*	*	*	*	*	*	*	*
!	!	!	!	!	!	!	!	!	!	!	!	!LO:LB:g=original	!	!	!	!	!	!	!	!	!
.	.	8F#X\L	.	8a\L	.	.	.	8dd#X\L	.	.	.	4d#X\	-rum	.	.	.	.	.	.	.	.
.	.	8F#\	.	8a\	.	4b/	.	8dd#\	.	.	.	.	.	.	.	.	.	.	.	.	.
.	.	8D#X\	.	8f\	.	.	.	8ff\	.	.	.	4f\	de	.	.	.	.	.	.	.	.
.	.	8D#\J	.	8f\J	.	8b/	.	8ff\J	.	.	.	.	.	.	.	.	.	.	.	.	.
=28	=28	=28	=28	=28	=28	=28	=28	=28	=28	=28	=28	=28	=28	=28	=28	=28	=28	=28	=28	=28	=28
1ryy	1ryy	8E\L	.	8g\L	.	4b/	.	8gg\L	.	.	.	8g\L	De-	.	.	.	.	.	.	.	.
.	.	8E\	.	8g\	.	.	.	8gg\	.	.	.	8e\J	.	.	.	.	.	.	.	.	.
.	.	8A\	.	8a\	.	8cc/L	.	8ee\	.	.	.	8c\L	-o	.	.	.	.	.	.	.	.
.	.	8A\J	.	8a\J	.	8a/J	.	8ee\J	.	.	.	8A\J	.	.	.	.	.	.	.	.	.
!	!	!LO:TX:t=P:problem=mixed beam	!	!LO:TX:t=P:problem=mixed beam	!	!	!	!	!	!	!	!	!	!	!	!	!	!	!	!	!
.	.	8B\L	.	8b\L	.	4g/	.	8ee\L	.	.	.	4G/	ve-	.	.	.	.	.	.	.	.
.	.	8B\	.	8b\	.	.	.	8ee\	.	.	.	.	.	.	.	.	.	.	.	.	.
.	.	8BB/	.	8B/	.	4f#X/	.	8dd#X\	.	.	.	4F#X/	.	.	.	.	.	.	.	.	.
.	.	8BB/J	.	8B/J	.	.	.	8dd#\J	.	.	.	.	.	.	.	.	.	.	.	.	.
=29	=29	=29	=29	=29	=29	=29	=29	=29	=29	=29	=29	=29	=29	=29	=29	=29	=29	=29	=29	=29	=29
1ryy	1ryy	4.E\	.	4.e\	.	4g/	.	4ee\	.	1r	.	4E/	-ro	1r	.	1r	.	1r	1r	1r	1r
.	.	.	.	.	.	4r	.	4r	.	.	.	4r	.	.	.	.	.	.	.	.	.
!	!	!	!	!	!LO:DY:a:t=for&colon;	!	!	!	!	!	!	!	!	!	!	!	!	!	!	!	!
.	.	8e\	.	8e\	f	.	.	.	.	.	.	.	.	.	.	.	.	.	.	.	.
.	.	8d\L	.	8d\L	.	2r	.	2r	.	.	.	2r	.	.	.	.	.	.	.	.	.
.	.	8c\	.	8c\	.	.	.	.	.	.	.	.	.	.	.	.	.	.	.	.	.
.	.	8B\	.	8B\	.	.	.	.	.	.	.	.	.	.	.	.	.	.	.	.	.
.	.	8A\J	.	8A\J	.	.	.	.	.	.	.	.	.	.	.	.	.	.	.	.	.
!	!	!	!	!LO:LB:g=original	!	!	!	!	!	!	!	!	!	!	!	!	!	!	!	!	!
=30	=30	=30	=30	=30	=30	=30	=30	=30	=30	=30	=30	=30	=30	=30	=30	=30	=30	=30	=30	=30	=30
*	*	*tremolo	*	*tremolo	*	*	*	*	*	*	*	*	*	*	*	*	*	*	*	*	*
!	!	!LO:TX:rj:a:t=T(utti).	!	!	!	!	!LO:DY:rj:a:t=for&colon;	!	!LO:DY:rj:a:t=f&colon;	!	!	!LO:TX:rj:a:t=T(utti).	!	!LO:TX:rj:a:t=T(utti).	!	!LO:TX:rj:a:t=T(utti).	!	!	!	!	!
1ryy	1ryy	8G\L	.	8d\L	.	16b\LL	f	16gg\LL	f	2G\	Ge-	2B\	Ge-	2g\	Ge-	2dd\	Ge-	4g/	4dd\	4b\	4gg\
.	.	.	.	.	.	16b\	.	16gg\	.	.	.	.	.	.	.	.	.	.	.	.	.
.	.	8G\	.	8d\	.	16b\	.	16gg\	.	.	.	.	.	.	.	.	.	.	.	.	.
.	.	.	.	.	.	16b\JJ	.	16gg\JJ	.	.	.	.	.	.	.	.	.	.	.	.	.
.	.	8G\	.	8d\	.	16b\LL	.	16gg\LL	.	.	.	.	.	.	.	.	.	8g/L	4dd\	4b\	4gg\
.	.	.	.	.	.	16b\	.	16gg\	.	.	.	.	.	.	.	.	.	.	.	.	.
.	.	8G\J	.	8d\J	.	16b\	.	16gg\	.	.	.	.	.	.	.	.	.	8g/J	.	.	.
.	.	.	.	.	.	16b\JJ	.	16gg\JJ	.	.	.	.	.	.	.	.	.	.	.	.	.
*	*	*	*	*	*	*tremolo	*	*	*	*	*	*	*	*	*	*	*	*	*	*	*
.	.	8G\L	.	8d\L	.	16b\LL	.	16gg\LL	.	2G\	-ni-	2B\	-ni-	2g\	-ni-	2dd\	-ni-	4g/	4dd\	4b\	4gg\
.	.	.	.	.	.	16b\	.	16gg\	.	.	.	.	.	.	.	.	.	.	.	.	.
.	.	8G\	.	8d\	.	16b\	.	16gg\	.	.	.	.	.	.	.	.	.	.	.	.	.
.	.	.	.	.	.	16b\	.	16gg\JJ	.	.	.	.	.	.	.	.	.	.	.	.	.
.	.	8G\	.	8d\	.	16b\	.	16gg\LL	.	.	.	.	.	.	.	.	.	4g/	4dd\	4b\	4gg\
.	.	.	.	.	.	16b\	.	16gg\	.	.	.	.	.	.	.	.	.	.	.	.	.
.	.	8G\J	.	8d\J	.	16b\	.	16gg\	.	.	.	.	.	.	.	.	.	.	.	.	.
.	.	.	.	.	.	16b\JJ	.	16gg\JJ	.	.	.	.	.	.	.	.	.	.	.	.	.
!	!	!	!	!	!	!	!	!LO:LB:g=original	!	!	!	!	!	!	!	!	!	!	!	!	!
=31	=31	=31	=31	=31	=31	=31	=31	=31	=31	=31	=31	=31	=31	=31	=31	=31	=31	=31	=31	=31	=31
1ryy	1ryy	8Fn\L	.	8d\L	.	16dd\LL	.	16bb\LL	.	2F\	-tum	2B\	-tum	2g\	-tum	2dd\	-tum	4g/	4dd\	4dd\	4bb\
.	.	.	.	.	.	16dd\	.	16bb\	.	.	.	.	.	.	.	.	.	.	.	.	.
.	.	8Fn\	.	8d\	.	16dd\	.	16bb\	.	.	.	.	.	.	.	.	.	.	.	.	.
.	.	.	.	.	.	16dd\	.	16bb\JJ	.	.	.	.	.	.	.	.	.	.	.	.	.
.	.	8Fn\	.	8d\	.	16dd\	.	16bb\LL	.	.	.	.	.	.	.	.	.	4g/	8dd\L	4dd\	4bb\
.	.	.	.	.	.	16dd\	.	16bb\	.	.	.	.	.	.	.	.	.	.	.	.	.
.	.	8Fn\J	.	8d\J	.	16dd\	.	16bb\	.	.	.	.	.	.	.	.	.	.	8dd\J	.	.
.	.	.	.	.	.	16dd\JJ	.	16bb\JJ	.	.	.	.	.	.	.	.	.	.	.	.	.
*	*	*	*	*	*	*	*	*tremolo	*	*	*	*	*	*	*	*	*	*	*	*	*
.	.	8F\L	.	8d\L	.	16dd\LL	.	16bb\LL	.	2F\	n(on)	2B\	n(on)	2g\	non	2dd\	non	4g/	4dd\	4dd\	2bb\
.	.	.	.	.	.	16dd\	.	16bb\	.	.	.	.	.	.	.	.	.	.	.	.	.
.	.	8F\	.	8d\	.	16dd\	.	16bb\	.	.	.	.	.	.	.	.	.	.	.	.	.
.	.	.	.	.	.	16dd\	.	16bb\	.	.	.	.	.	.	.	.	.	.	.	.	.
.	.	8F\	.	8d\	.	16dd\	.	16bb\	.	.	.	.	.	.	.	.	.	4g/	4dd\	4dd\	.
.	.	.	.	.	.	16dd\	.	16bb\	.	.	.	.	.	.	.	.	.	.	.	.	.
.	.	8F\J	.	8d\J	.	16dd\	.	16bb\	.	.	.	.	.	.	.	.	.	.	.	.	.
.	.	.	.	.	.	16dd\JJ	.	16bb\JJ	.	.	.	.	.	.	.	.	.	.	.	.	.
*	*	*Xtremolo	*	*Xtremolo	*	*Xtremolo	*	*Xtremolo	*	*	*	*	*	*	*	*	*	*	*	*	*
!	!	!	!	!	!	!	!	!	!	!	!	!	!	!	!	!	!	!	!	!LO:LB:g=original	!
=32	=32	=32	=32	=32	=32	=32	=32	=32	=32	=32	=32	=32	=32	=32	=32	=32	=32	=32	=32	=32	=32
!	!	!LO:TX:t=P:problem=mixed beam	!	!	!	!	!	!	!	!	!	!	!	!	!	!	!	!	!	!	!
1ryy	1ryy	8E\L	.	8e\L	.	16g/LL	.	16ccc\LL	.	4E\	fac-	4c\	fac-	4g\	fac-	4ee\	fac-	4cc\	4ee\	4ee\	4ccc\
.	.	.	.	.	.	16g/	.	16ccc\	.	.	.	.	.	.	.	.	.	.	.	.	.
.	.	8E\	.	8e\	.	16g/	.	16ccc\	.	.	.	.	.	.	.	.	.	.	.	.	.
.	.	.	.	.	.	16g/JJ	.	16ccc\JJ	.	.	.	.	.	.	.	.	.	.	.	.	.
.	.	8C/	.	8c\	.	16g/LL	.	16ee\LL	.	4C/	-tum	4c\	-tum	4g\	-tum	4ee\	-tum	4cc\	4ee\	4cc\	4ee\
.	.	.	.	.	.	16g/	.	16ee\	.	.	.	.	.	.	.	.	.	.	.	.	.
.	.	8C/J	.	8c\J	.	16g/	.	16ee\	.	.	.	.	.	.	.	.	.	.	.	.	.
.	.	.	.	.	.	16g/JJ	.	16ee\JJ	.	.	.	.	.	.	.	.	.	.	.	.	.
*	*	*	*	*	*	*tremolo	*	*	*	*	*	*	*	*	*	*	*	*	*	*	*
.	.	8BB/L	.	8d\L	.	16g/LL	.	16ff\LL	.	4BB/	con-	4d\	con-	4g\	con-	4ff\	con-	4g/	4dd\	4dd\	4ff\
.	.	.	.	.	.	16g/	.	16ff\	.	.	.	.	.	.	.	.	.	.	.	.	.
.	.	8BB/	.	8d\	.	16g/	.	16ff\	.	.	.	.	.	.	.	.	.	.	.	.	.
.	.	.	.	.	.	16g/	.	16ff\JJ	.	.	.	.	.	.	.	.	.	.	.	.	.
.	.	8C/	.	8c\	.	16g/	.	16ee\LL	.	4C/	-ſub-	4c\	-ſub-	4g\	-ſub-	4ee\	-ſub-	4cc\	4ee\	4cc\	4ee\
.	.	.	.	.	.	16g/	.	16ee\	.	.	.	.	.	.	.	.	.	.	.	.	.
.	.	8C/J	.	8c\J	.	16g/	.	16ee\	.	.	.	.	.	.	.	.	.	.	.	.	.
.	.	.	.	.	.	16g/JJ	.	16ee\JJ	.	.	.	.	.	.	.	.	.	.	.	.	.
!	!	!LO:LB:g=original	!	!	!	!	!	!	!	!	!	!	!	!	!	!	!	!	!	!	!
=33	=33	=33	=33	=33	=33	=33	=33	=33	=33	=33	=33	=33	=33	=33	=33	=33	=33	=33	=33	=33	=33
1ryy	1ryy	8G\L	.	8d\L	.	16g/LL	.	16dd\LL	.	4G\	-ſtan-	4B\	-ſtan-	4g\	-ſtan-	4dd\	-ſtan-	4g/	4dd\	4b\	4dd\
.	.	.	.	.	.	16g/	.	16dd\	.	.	.	.	.	.	.	.	.	.	.	.	.
.	.	8G\	.	8d\	.	16g/	.	16dd\	.	.	.	.	.	.	.	.	.	.	.	.	.
.	.	.	.	.	.	16g/	.	16dd\JJ	.	.	.	.	.	.	.	.	.	.	.	.	.
.	.	8E\	.	8c\	.	16g/	.	16ee\LL	.	4E\	-ti-	4c\	-ti-	4g\	-ti-	4ee\	-ti-	4cc\	4ee\	4cc\	4ee\
.	.	.	.	.	.	16g/	.	16ee\	.	.	.	.	.	.	.	.	.	.	.	.	.
.	.	8E\J	.	8c\J	.	16g/	.	16ee\	.	.	.	.	.	.	.	.	.	.	.	.	.
.	.	.	.	.	.	16g/JJ	.	16ee\JJ	.	.	.	.	.	.	.	.	.	.	.	.	.
!	!	!	!	!	!	!	!	!	!	!	!	!	!	!	!	!	!	!	!	!	!LO:LB:g=original
.	.	8BB/L	.	8d\L	.	16g/LL	.	16ff\LL	.	4D\	-a-	4d\	-a-	4g\	-a-	4ff\	-a-	4g/	4dd\	4dd\	4ff\
.	.	.	.	.	.	16g/	.	16ff\	.	.	.	.	.	.	.	.	.	.	.	.	.
.	.	8BB/	.	8d\	.	16g/	.	16ff\	.	.	.	.	.	.	.	.	.	.	.	.	.
.	.	.	.	.	.	16g/	.	16ff\JJ	.	.	.	.	.	.	.	.	.	.	.	.	.
.	.	8C/	.	8c\	.	16g/	.	16ee\LL	.	4C/	-lem	4c\	-lem	4g\	-lem	4ee\	-lem	4cc\	4ee\	4cc\	4ee\
.	.	.	.	.	.	16g/	.	16ee\	.	.	.	.	.	.	.	.	.	.	.	.	.
.	.	8C/J	.	8c\J	.	16g/	.	16ee\	.	.	.	.	.	.	.	.	.	.	.	.	.
.	.	.	.	.	.	16g/JJ	.	16ee\JJ	.	.	.	.	.	.	.	.	.	.	.	.	.
*	*	*	*	*	*	*Xtremolo	*	*	*	*	*	*	*	*	*	*	*	*	*	*	*
!	!	!	!	!	!	!LO:LB:g=original	!	!	!	!	!	!	!	!	!	!LO:LB:g=original	!	!LO:LB:g=original	!	!	!
=34	=34	=34	=34	=34	=34	=34	=34	=34	=34	=34	=34	=34	=34	=34	=34	=34	=34	=34	=34	=34	=34
1ryy	1ryy	4G\	.	4c/	.	4cc\	.	16ee\LL	.	4G\	Pa-	4c\	Pa-	4g\	pa-	4ee\	pa-	4cc\	4ee\	4cc\	4ee\
.	.	.	.	.	.	.	.	16ee\	.	.	.	.	.	.	.	.	.	.	.	.	.
.	.	.	.	.	.	.	.	16ee\	.	.	.	.	.	.	.	.	.	.	.	.	.
.	.	.	.	.	.	.	.	16ee\JJ	.	.	.	.	.	.	.	.	.	.	.	.	.
.	.	4GG/	.	4B/	.	4b\	.	16dd\LL	.	4GG/	-tri	4B\	-tri	4g\	-tri	4dd\	-tris	4g/	4dd\	4b\	4dd\
.	.	.	.	.	.	.	.	16dd\	.	.	.	.	.	.	.	.	.	.	.	.	.
.	.	.	.	.	.	.	.	16dd\	.	.	.	.	.	.	.	.	.	.	.	.	.
.	.	.	.	.	.	.	.	16dd\JJ	.	.	.	.	.	.	.	.	.	.	.	.	.
!	!	!	!	!	!	!	!	!	!	!	!	!LO:LB:g=original	!	!	!	!	!	!	!	!	!
.	.	4r	.	4r	.	4r	.	4gg\	.	4r	.	4r	.	4r	.	4gg\	per	2r	2r	4r	4r
!	!	!	!	!	!	!	!	!	!	!	!	!LO:TX:t=P:problem=pod nutami skreślony tekst	!	!	!	!	!	!	!	!	!
.	.	4G\	.	4g\	.	4b-X/	.	4ee\	.	4G\	Qui	4G/	qui	4b-X\	quem	4ee\	quem	.	.	4b-X\	4ee\
!	!	!	!	!	!	!	!	!	!	!LO:LB:g=original	!	!	!	!LO:PB:g=original	!	!	!	!	!	!	!
=35	=35	=35	=35	=35	=35	=35	=35	=35	=35	=35	=35	=35	=35	=35	=35	=35	=35	=35	=35	=35	=35
1ryy	1ryy	4A\	.	4g\	.	4e/	.	4cc#X\	.	4A\	prop-	4A/	p(ro)p-	4e\	om-	4cc#X\	om-	1r	1r	4a/	4cc#X\
.	.	4D\	.	4f\	.	4f/	.	4dd\	.	8D\	-ter	8A/	-ter	8f\	-ni-	8dd\	-ni-	.	.	4a/	4dd\
.	.	.	.	.	.	.	.	.	.	8D\	nos	8A/	nos	8f\	-a	8dd\	-a	.	.	.	.
!	!	!	!	!	!	!	!	!LO:LB:g=original	!	!	!	!	!	!	!	!	!	!	!	!	!
.	.	4r	.	4r	.	4r	.	4ff\	.	4F\	ho-	4A/	ho-	4a\	per	4ff\	per	.	.	4r	4r
.	.	4F\	.	4f\	.	4a/	.	4dd\	.	4F\	-mi-	4A/	.	4a\	quem	4dd\	quem	.	.	4a/	4dd\
=36	=36	=36	=36	=36	=36	=36	=36	=36	=36	=36	=36	=36	=36	=36	=36	=36	=36	=36	=36	=36	=36
1ryy	1ryy	4G\	.	4f\	.	4d/	.	4b\	.	4G\	-nes	4G/	-mi-	4d\	om-	4b\	om-	4g/	4dd\	4g/	4b\
.	.	4E\	.	4e\	.	4g/	.	4cc\	.	4E\	et	4G/	-nes	8e\	-ni-	8cc\	-ni-	4cc\	4ee\	4g/	4cc\
.	.	.	.	.	.	.	.	.	.	.	.	.	.	8e\	-a	8cc\	-a	.	.	.	.
!	!	!	!	!	!	!	!	!	!	!	!	!	!	!	!	!	!	!	!LO:LB:g=original	!	!
.	.	4BB/	.	4d\	.	4g/	.	4ff\	.	4D/	prop-	(4d\	et	4g\	fac-	4ff\	fac-	4g/	4dd\	4dd\	4ff\
.	.	4C/	.	4c\	.	4g/	.	4ee\	.	4C/	.	4c\)	prop-	4g\	-ta	4ee\	-ta	4g/	4cc\	4cc\	4ee\
=37	=37	=37	=37	=37	=37	=37	=37	=37	=37	=37	=37	=37	=37	=37	=37	=37	=37	=37	=37	=37	=37
1ryy	1ryy	4GG/	.	4B/	.	4g/	.	4dd\	.	4GG/	-ter	4B\	-ter	4g\	sunt	4dd\	sunt	4g/	4dd\	4b\	4dd\
.	.	8G\L	.	8g\L	.	4r	.	4r	.	4r	.	4r	.	4r	.	4r	.	4r	4r	4r	4r
.	.	8A\J	.	8a\J	.	.	.	.	.	.	.	.	.	.	.	.	.	.	.	.	.
.	.	8G\L	.	8g\L	.	2r	.	2r	.	2r	.	2r	.	2r	.	2r	.	2r	2r	2r	2r
.	.	8F\	.	8f\	.	.	.	.	.	.	.	.	.	.	.	.	.	.	.	.	.
.	.	8E\	.	8e\	.	.	.	.	.	.	.	.	.	.	.	.	.	.	.	.	.
.	.	8D\J	.	8d\J	.	.	.	.	.	.	.	.	.	.	.	.	.	.	.	.	.
=38	=38	=38	=38	=38	=38	=38	=38	=38	=38	=38	=38	=38	=38	=38	=38	=38	=38	=38	=38	=38	=38
1ryy	1ryy	4C/	.	4c/	.	4g/	.	8cc\L	.	4C/	noſ-	4c\	noſ-	4g\	noſ-	(4cc\	qui	4e/	4cc\	4e/	4cc\
.	.	.	.	.	.	.	.	16dd\L	.	.	.	.	.	.	.	.	.	.	.	.	.
.	.	.	.	.	.	.	.	16ee\JJ	.	.	.	.	.	.	.	.	.	.	.	.	.
.	.	4BB/	.	4B/	.	4g/	.	4dd\	.	4BB/	-tram	4B\	-tram	4g\	-tram	4dd\)	.	4g/	4dd\	4g/	4dd\
.	.	8r	.	8r	.	8r	.	8r	.	8r	.	8r	.	8r	.	8r	.	8r	8r	8r	8r
*	*	*	*	*	*	*	*	*	*	*	*ij	*	*ij	*	*ij	*	*	*	*	*	*
.	.	8c\L	.	8cc\L	.	8g/L	.	8ee\	.	8c\	noſ-	8c\	noſ-	8g\	noſ-	8ee\	p(ro)p-	8g/L	8cc\L	8cc\L	8ee\L
.	.	.	.	.	.	.	.	8qgg/	.	.	.	.	.	.	.	.	.	.	.	.	.
.	.	8A\	.	8a\	.	8B/	.	8ff\L	.	8A\	-tram	8c\	-tram	8a\	-tram	8ff\	-ter	8cc/	8cc\	8cc\	8ff\
*	*	*	*	*	*	*	*	*	*	*	*Xij	*	*Xij	*	*Xij	*	*	*	*	*	*
.	.	8F\J	.	8f\J	.	8a/J	.	16ee\L	.	8F\	ſa-	8c\	ſa-	8a\	ſa-	8dd\	nos	8cc/J	8dd\J	8a\J	8dd\J
.	.	.	.	.	.	.	.	16dd\JJ	.	.	.	.	.	.	.	.	.	.	.	.	.
=39	=39	=39	=39	=39	=39	=39	=39	=39	=39	=39	=39	=39	=39	=39	=39	=39	=39	=39	=39	=39	=39
1ryy	1ryy	8G\L	.	8g\L	.	4d/	.	8cc\L	.	8G\	-lu-	8c\L	-lu-	4g\	-lu-	8cc\	ho-	4g/	4dd\	4g/	8cc\L
.	.	8F\	.	8f\	.	.	.	8b\J	.	8F\	.	8d\J	.	.	.	8b\	-mi-	.	.	.	8b\J
.	.	8E\	.	8e\	.	8g/L	.	4cc\	.	8E\	-tem	8e\	-tem	4g\	-tem	4cc\	-nes	4c/	4cc\	8g/L	4cc\
*	*	*	*	*custos:e	*	*	*	*	*	*	*	*	*	*	*	*	*	*	*	*	*
.	.	8D\J	.	8d\J	.	8f/J	.	.	.	8r	.	8r	.	.	.	.	.	.	.	8f/J	.
!	!	!	!	!LO:LB:g=original	!	!	!	!	!	!	!	!	!	!	!	!LO:LB:g=original	!	!	!	!	!
*	*	*tremolo	*	*tremolo	*	*	*	*	*	*	*ij	*	*	*	*	*	*	*	*	*	*
.	.	8C/L	.	8e\L	.	4e/	.	16cc\LL	.	4C/	noſ-	4c\	noſ-	4g\	deſ-	4ee\	et	4cc\	4ee\	8e/L	2ee\
.	.	.	.	.	.	.	.	16ccc\	.	.	.	.	.	.	.	.	.	.	.	.	.
.	.	8C/	.	8e\	.	.	.	16bb\	.	.	.	.	.	.	.	.	.	.	.	8g/J	.
.	.	.	.	.	.	.	.	16ccc\JJ	.	.	.	.	.	.	.	.	.	.	.	.	.
.	.	.	.	.	.	8qddd/	.	8qddd/	.	.	.	.	.	.	.	.	.	.	.	.	.
.	.	8C/	.	8e\	.	8ccc\L	.	8ccc\L	.	8c\	-tram	8c\	-tram	8g\	-cen-	8ee\	p(ro)p-	8cc\L	8ee\L	4g/	.
*	*	*	*	*	*	*	*	*	*	*	*Xij	*	*	*	*	*	*	*	*	*	*
.	.	8C/J	.	8e\J	.	16bb\L	.	16bb\L	.	8c\	ſa-	8c\	ſa-	8g\	-dit	8ee\	-ter	8cc\J	8ee\J	.	.
.	.	.	.	.	.	16aa\JJ	.	16aa\JJ	.	.	.	.	.	.	.	.	.	.	.	.	.
!	!	!LO:LB:g=original	!	!	!	!	!	!	!	!	!	!	!	!	!	!	!	!	!	!	!
=40	=40	=40	=40	=40	=40	=40	=40	=40	=40	=40	=40	=40	=40	=40	=40	=40	=40	=40	=40	=40	=40
1ryy	1ryy	8BB/L	.	8d\L	.	8gg\L	.	8gg\L	.	2B\	-lu-	2d\	-lu-	2g\	deſ-	2dd\	noſ-	2g/	2dd\	4dd\	4dd\
.	.	8BB/	.	8d\	.	16aa\L	.	16aa\L	.	.	.	.	.	.	.	.	.	.	.	.	.
.	.	.	.	.	.	16gg\JJ	.	16gg\JJ	.	.	.	.	.	.	.	.	.	.	.	.	.
.	.	8BB/	.	8d\	.	16gg\LL	.	16gg\LL	.	.	.	.	.	.	.	.	.	.	.	4dd\	8gg\L
.	.	.	.	.	.	16ff\	.	16ff\	.	.	.	.	.	.	.	.	.	.	.	.	.
.	.	8BB/J	.	8d\J	.	16ee\	.	16ee\	.	.	.	.	.	.	.	.	.	.	.	.	8ff\J
.	.	.	.	.	.	16dd\JJ	.	16dd\JJ	.	.	.	.	.	.	.	.	.	.	.	.	.
*	*	*	*	*	*	*	*	*	*	*	*	*custos:c	*	*	*	*	*	*	*	*	*
!	!	!	!	!	!	!	!	!	!	!	!	!LO:TX:b:i:t=vertatur.	!	!	!	!	!	!	!	!	!
.	.	8C/L	.	8e\L	.	16ee\LL	.	16ee\LL	.	4c\	-tem	4c\	-tem	4g\	-cen-	4ee\	-tram	4cc\	4ee\	4cc\	4ee\
.	.	.	.	.	.	16ccc\	.	16ccc\	.	.	.	.	.	.	.	.	.	.	.	.	.
.	.	8C/	.	8e\	.	16bb\	.	16bb\	.	.	.	.	.	.	.	.	.	.	.	.	.
.	.	.	.	.	.	16ccc\JJ	.	16ccc\JJ	.	.	.	.	.	.	.	.	.	.	.	.	.
.	.	.	.	.	.	.	.	8qddd/	.	.	.	.	.	.	.	.	.	.	.	.	.
!	!	!	!	!	!	!	!	!	!	!	!	!LO:PB:g=original	!	!	!	!	!	!	!	!	!
.	.	8C/	.	8e\	.	16ddd\LL	.	8ccc\L	.	4c\	deſ-	4c\	de-	4g\	-dit	4ee\	ſa-	8cc\L	4ee\	8cc\L	4ee\
.	.	.	.	.	.	16ccc\	.	.	.	.	.	.	.	.	.	.	.	.	.	.	.
.	.	8C/J	.	8e\J	.	16bb\	.	16bb\L	.	.	.	.	.	.	.	.	.	8cc\J	.	8cc\J	.
.	.	.	.	.	.	16aa\JJ	.	16aa\JJ	.	.	.	.	.	.	.	.	.	.	.	.	.
=41	=41	=41	=41	=41	=41	=41	=41	=41	=41	=41	=41	=41	=41	=41	=41	=41	=41	=41	=41	=41	=41
*	*	*	*	*	*	*	*	*	*	*	*	*	*	*	*ij	*	*	*	*	*	*
1ryy	1ryy	1ryy	.	1ryy	.	1ryy	.	1ryy	.	1ryy	.	1ryy	.	2g\	deſ-	1ryy	.	1ryy	1ryy	1ryy	1ryy
.	.	.	.	.	.	.	.	.	.	.	.	.	.	4g\	-cen-	.	.	.	.	.	.
.	.	.	.	.	.	.	.	.	.	.	.	.	.	4g\	-dit	.	.	.	.	.	.
*	*	*	*	*	*	*	*	*	*	*	*	*	*	*	*Xij	*	*	*	*	*	*
!	!	!	!	!	!	!	!	!	!	!	!	!	!	!LO:LB:g=original	!	!	!	!	!	!	!
=42	=42	=42	=42	=42	=42	=42	=42	=42	=42	=42	=42	=42	=42	=42	=42	=42	=42	=42	=42	=42	=42
1ryy	1ryy	8BB/L	.	8d\L	.	8gg\L	.	8gg\L	.	2B\	-cen-	2d\	-ſcen-	2g\	deſ-	2dd\	-lu-	4g/	4dd\	4dd\	4dd\
.	.	8BB/	.	8d\	.	16aa\L	.	16aa\L	.	.	.	.	.	.	.	.	.	.	.	.	.
.	.	.	.	.	.	16gg\JJ	.	16gg\JJ	.	.	.	.	.	.	.	.	.	.	.	.	.
.	.	.	.	.	.	.	.	8qgg/	.	.	.	.	.	.	.	.	.	.	.	.	.
.	.	8BB/	.	8d\	.	16gg\LL	.	8ff\L	.	.	.	.	.	.	.	.	.	8g/L	8dd\L	8dd\L	8gg\L
.	.	.	.	.	.	16ff\	.	.	.	.	.	.	.	.	.	.	.	.	.	.	.
.	.	8BB/J	.	8d\J	.	16ee\	.	16ee\L	.	.	.	.	.	.	.	.	.	8g/J	8dd\J	8dd\J	8ff\J
.	.	.	.	.	.	16dd\JJ	.	16dd\JJ	.	.	.	.	.	.	.	.	.	.	.	.	.
*	*	*Xtremolo	*	*	*	*	*	*	*	*	*	*	*	*	*	*	*	*	*	*	*
!	!	!	!	!	!	!LO:LB:g=original	!	!LO:LB:g=original	!	!	!	!	!	!	!	!	!	!	!	!	!
!	!	!LO:TX:t=P:problem=mixed beam	!	!	!	!	!	!	!	!	!	!	!	!	!	!	!	!	!	!	!
.	.	8C/L	.	8e\L	.	16ee\LL	.	16ee\LL	.	4c\	-dit	4c\	-dit	4g\	-cen-	4ee\	-tem	4cc\	4ee\	4cc\	4ee\
.	.	.	.	.	.	16ee\	.	16ee\	.	.	.	.	.	.	.	.	.	.	.	.	.
.	.	8C/	.	8e\	.	16ee\	.	16ee\	.	.	.	.	.	.	.	.	.	.	.	.	.
.	.	.	.	.	.	16ee\JJ	.	16ee\JJ	.	.	.	.	.	.	.	.	.	.	.	.	.
!	!	!	!	!	!	!	!	!	!	!LO:LB:g=original	!	!	!	!	!	!	!	!	!	!	!
.	.	8A\	.	8e\	.	16cc\LL	.	16cc\LL	.	4A\	de	4e\	de	4a\	-dit	4cc\	de-	4e/	4cc\	4cc\	4ee\
.	.	.	.	.	.	16cc\	.	16cc\	.	.	.	.	.	.	.	.	.	.	.	.	.
.	.	8A/J	.	8e\J	.	16cc\	.	16cc\	.	.	.	.	.	.	.	.	.	.	.	.	.
.	.	.	.	.	.	16cc\JJ	.	16cc\JJ	.	.	.	.	.	.	.	.	.	.	.	.	.
*	*	*	*	*Xtremolo	*	*	*	*	*	*	*	*	*	*	*	*	*	*	*	*	*
=43	=43	=43	=43	=43	=43	=43	=43	=43	=43	=43	=43	=43	=43	=43	=43	=43	=43	=43	=43	=43	=43
1ryy	1ryy	8F\L	.	8f\L	.	16dd\LL	.	16dd\LL	.	4F\	cae-	(4f\	cae-	4a\	de-	(4dd\	-ſcen-	4r	4dd\	4dd\	4ff\
.	.	.	.	.	.	16dd\	.	16dd\	.	.	.	.	.	.	.	.	.	.	.	.	.
.	.	8F\	.	8f\	.	16dd\	.	16dd\	.	.	.	.	.	.	.	.	.	.	.	.	.
.	.	.	.	.	.	16dd\JJ	.	16dd\JJ	.	.	.	.	.	.	.	.	.	.	.	.	.
.	.	8G\	.	8d\	.	16b\LL	.	16b\LL	.	4G\	.	4d\)	.	4g\	-cae-	4b\)	.	4g/	4dd\	4b\	4dd\
.	.	.	.	.	.	16b\	.	16b\	.	.	.	.	.	.	.	.	.	.	.	.	.
.	.	8G\J	.	8d\J	.	16b\	.	16b\	.	.	.	.	.	.	.	.	.	.	.	.	.
.	.	.	.	.	.	16b\JJ	.	16b\JJ	.	.	.	.	.	.	.	.	.	.	.	.	.
.	.	4C/	.	4e\	.	4cc\	.	4cc\	.	4C/	-liſ	4e\	-liſ	4g\	-liſ	4cc\	-dit	4cc\	4ee\	4cc\	4ee\
.	.	4r	.	4r	.	4r	.	4r	.	4r	.	4r	.	4r	.	4r	.	4r	4r	4r	4r
!	!	!	!	!	!	!	!	!	!	!	!	!	!	!	!	!	!	!	!	!LO:LB:g=original	!
=44	=44	=44	=44	=44	=44	=44	=44	=44	=44	=44	=44	=44	=44	=44	=44	=44	=44	=44	=44	=44	=44
!	!	!	!	!LO:TX:a:t=3.	!	!	!	!LO:TX:a:t=3.	!	!LO:TX:a:t=3.	!	!	!	!	!	!LO:TX:a:t=3.	!	!LO:TX:a:t=3	!LO:TX:a:t=3	!	!
1ryy	1ryy	0r	.	0r	.	0r	.	0r	.	0r	.	0r	.	0r	.	0r	.	0r	0r	0r	0r
=45	=45	=45	=45	=45	=45	=45	=45	=45	=45	=45	=45	=45	=45	=45	=45	=45	=45	=45	=45	=45	=45
1ryy	1ryy	.	.	.	.	.	.	.	.	.	.	.	.	.	.	.	.	.	.	.	.
=46	=46	=46	=46	=46	=46	=46	=46	=46	=46	=46	=46	=46	=46	=46	=46	=46	=46	=46	=46	=46	=46
1ryy	1ryy	1r	.	1r	.	1r	.	1r	.	1r	.	1r	.	1r	.	1r	.	1r	1r	1r	1r
!	!	!	!	!	!	!	!	!	!	!	!	!	!	!	!	!	!	!	!	!	!LO:LB:g=original
=47	=47	=47	=47	=47	=47	=47	=47	=47	=47	=47	=47	=47	=47	=47	=47	=47	=47	=47	=47	=47	=47
1ryy	1ryy	2r	.	2r	.	2r	.	2r	.	2r	.	2r	.	2r	.	2r	.	2r	2r	2r	2r
.	.	4r	.	4r	.	4r	.	4r	.	4r	.	4r	.	4r	.	4r	.	4r	4r	4r	4r
!	!	!	!	!	!	!	!	!	!LO:DY:rj:a:t=f.	!	!	!	!	!	!	!	!	!	!	!	!
.	.	8A\L	.	8a\L	.	16ee\LL	.	16ccc\LL	f	4A\	De-	4c\	de-	4a\ 4f\	deſ-	4ee\	de	4cc\	4ee\	4ee\	8ee\L
.	.	.	.	.	.	16ee\	.	16ccc\	.	.	.	.	.	.	.	.	.	.	.	.	.
.	.	8A\J	.	8a\J	.	16ee\	.	16ccc\	.	.	.	.	.	.	.	.	.	.	.	.	8ccc\J
.	.	.	.	.	.	16ee\JJ	.	16ccc\JJ	.	.	.	.	.	.	.	.	.	.	.	.	.
=48	=48	=48	=48	=48	=48	=48	=48	=48	=48	=48	=48	=48	=48	=48	=48	=48	=48	=48	=48	=48	=48
!	!	!	!	!	!	!	!	!	!	!	!	!	!	!LO:SIC:o:s:v:t=skreślenia i przeróbki w t. 47-48	!	!	!	!	!	!	!
1ryy	1ryy	8F\L	.	8f\L	.	16dd\LL	.	16ccc\LL	.	(4F\	-ſcen-	(4c\	-ſcen-	(4a\	-cen-	2dd\	cae-	4g/	4dd\	2dd\	4ccc\
.	.	.	.	.	.	16dd\	.	16ccc\	.	.	.	.	.	.	.	.	.	.	.	.	.
.	.	8F\	.	8f\	.	16dd\	.	16ccc\	.	.	.	.	.	.	.	.	.	.	.	.	.
.	.	.	.	.	.	16dd\JJ	.	16ccc\JJ	.	.	.	.	.	.	.	.	.	.	.	.	.
.	.	8G\	.	8g\	.	16dd\LL	.	16bb\LL	.	4G\)	.	4B\)	.	4g\)	.	.	.	8g/L	8dd\L	.	4bb\
.	.	.	.	.	.	16dd\	.	16bb\	.	.	.	.	.	.	.	.	.	.	.	.	.
.	.	8G\J	.	8g\J	.	16dd\	.	16bb\	.	.	.	.	.	.	.	.	.	8g/J	8dd\J	.	.
.	.	.	.	.	.	16dd\JJ	.	16bb\JJ	.	.	.	.	.	.	.	.	.	.	.	.	.
!	!	!	!	!LO:TX:t=P:problem=mixed beam	!	!	!	!	!	!	!	!	!	!	!	!	!	!	!	!	!
.	.	8c\L	.	8c/L	.	16ee\LL	.	16ccc\LL	.	4c\	-dit	4c\	-dit	4g\	-dit	4ee\	-liſ	4cc\	4ee\	4ee\	2ccc\
.	.	.	.	.	.	16ee\	.	16ccc\	.	.	.	.	.	.	.	.	.	.	.	.	.
.	.	8c\	.	8c/	.	16ee\	.	16ccc\	.	.	.	.	.	.	.	.	.	.	.	.	.
.	.	.	.	.	.	16ee\JJ	.	16ccc\JJ	.	.	.	.	.	.	.	.	.	.	.	.	.
.	.	8A\	.	8a\	.	16ee\LL	.	16ccc\LL	.	4A\	de	4c\	de	4a\ 4g\	de	4ee\	de	4cc\	4ee\	4ee\	.
.	.	.	.	.	.	16ee\	.	16ccc\	.	.	.	.	.	.	.	.	.	.	.	.	.
.	.	8A\J	.	8a\J	.	16ee\	.	16ccc\	.	.	.	.	.	.	.	.	.	.	.	.	.
.	.	.	.	.	.	16ee\JJ	.	16ccc\JJ	.	.	.	.	.	.	.	.	.	.	.	.	.
=49	=49	=49	=49	=49	=49	=49	=49	=49	=49	=49	=49	=49	=49	=49	=49	=49	=49	=49	=49	=49	=49
*	*	*	*	*	*	*tremolo	*	*	*	*	*	*	*	*	*	*	*	*	*	*	*
1ryy	1ryy	8F\L	.	8f\L	.	16dd\LL	.	16ccc\LL	.	(4F\	cae-	(4c\	cae-	(4a\	cae-	2dd\	cae-	4g/	4dd\	2dd\	4ccc\
.	.	.	.	.	.	16dd\	.	16ccc\	.	.	.	.	.	.	.	.	.	.	.	.	.
.	.	8F\	.	8f\	.	16dd\	.	16ccc\	.	.	.	.	.	.	.	.	.	.	.	.	.
.	.	.	.	.	.	16dd\	.	16ccc\JJ	.	.	.	.	.	.	.	.	.	.	.	.	.
.	.	8G\	.	8g\	.	16dd\	.	16bb\LL	.	4G\)	.	4B\)	.	4g\)	.	.	.	8g/L	4dd\	.	4bb\
.	.	.	.	.	.	16dd\	.	16bb\	.	.	.	.	.	.	.	.	.	.	.	.	.
.	.	8G\J	.	8g\J	.	16dd\	.	16bb\	.	.	.	.	.	.	.	.	.	8g/J	.	.	.
.	.	.	.	.	.	16dd\JJ	.	16bb\JJ	.	.	.	.	.	.	.	.	.	.	.	.	.
*	*	*	*	*	*	*Xtremolo	*	*	*	*	*	*	*	*	*	*	*	*	*	*	*
!	!	!LO:TX:t=P:problem=mixed beam	!	!LO:TX:t=P:problem=mixed beam	!	!	!	!	!	!	!	!	!	!	!	!	!	!	!	!	!
.	.	8C/L	.	8c/L	.	4ee\	.	4ccc\	.	4C/	-liſ	4c\	-liſ	4g\	-liſ	4ee\	-liſ.	4cc\	4ee\	4ee\	4ccc\
.	.	8c\	.	8cc\	.	.	.	.	.	.	.	.	.	.	.	.	.	.	.	.	.
.	.	8G\	.	8g\	.	4e/ 4G/	.	4cc/ 4e/ 4G/	.	4r	.	4r	.	4r	.	4r	.	8cc\L	8ee\L	4ee\	4ccc\
.	.	8E\J	.	8e\J	.	.	.	.	.	.	.	.	.	.	.	.	.	8cc\J	8ee\J	.	.
=50	=50	=50	=50	=50	=50	=50	=50	=50	=50	=50	=50	=50	=50	=50	=50	=50	=50	=50	=50	=50	=50
1ryy	1ryy	4C/	.	2c/	.	4e/ 4G/	.	2cc/ 2e/ 2G/	.	1r	.	1r	.	1r	.	1r	.	4cc\	4ee\	4ee\	2ccc\
.	.	4r	.	.	.	4r	.	.	.	.	.	.	.	.	.	.	.	4r	4r	4r	.
!	!	!	!	!	!	!	!	!	!	!	!	!	!	!	!	!	!	!LO:TX:b:i:t=Et Incarnatus\nTacet.	!LO:TX:b:i:t=Et Incarnatus\nTacet.	!	!
.	.	2r	.	2r	.	2r	.	2r	.	.	.	.	.	.	.	.	.	2r	2r	2r	2r
==	==	==	==	==	==	==	==	==	==	==	==	==	==	==	==	==	==	==	==	==	==
*-	*-	*-	*-	*-	*-	*-	*-	*-	*-	*-	*-	*-	*-	*-	*-	*-	*-	*-	*-	*-	*-
!!!system-decoration: [(s1,s2)],[(s3,s4)],[(s5,s6,s7,s8)],[(s9,s10,s11,s12,s13)],s14
!!!ENC: Solarz Mateusz
!!!END: 2020-09-21
!!!AIN: 1 alto 1 cello 6 empty 2 oboe 1 tenor 1 violn 1 vox
!!!ENC: Leszek Kubiak
!!!END: 2022-02-01
